!!!!SEGMENT: pl-sa--25-a-i-25--001_luna-georgius--vesperae-dixit-dominus.krn
!!!cenid: 17xx:483
!!!COM: Luna, Georgius
!!!COM-rismID: pe41010079
!!!CDT:
!!!CNT:
!!!OPR: Vesperae
!!!OTL: Dixit Dominus
!!!OMV: 001
!!!PDT:
!!!AGN: Sacred; Vespers
!!!SMS-siglum: PL-SA
!!!SMS-shelfmark: 25/A I 25
!!!SMS-shelfwork: 001-001 M
!!!SMS-variant:
!!!SMS-altvar:
!!!NIFC-rismSourceID: 1001068245
!!!NIFC-rismChildID: 1001068245
!!!NIFC-islandoraID:
!!!URL-pdf-islandora:
!!!URL-scan: https://bc.bdsandomierz.pl/dlibra/publication/1258/edition/1226/content @EN{Scan in the Sandomierz Diocese Digital Library} @PL{Skany w portalu Cyfrowa Biblioteka Diecezjalna w Sandomierzu}
!!!ONB-nifc: UWAGA: części Vesperae: Dixit Dominus, Confitebor, Beatus vir, Laudate pueri, Laudate Dominum, Magnificat
!!!AIN: 4 empty 1 tenor 2 violn 1 vox
!!!key:
**kern	**kern	**kern	**dynam	**kern	**text	**kern	**text	**kern	**text	**kern	**kern
*part8	*part7	*part6	*part6	*part5	*part5	*part4	*part4	*part3	*part3	*part2	*part1
*staff8	*staff7	*staff6	*	*staff5	*staff5	*staff4	*staff4	*staff3	*staff3	*staff2	*staff1
*Iempty	*Ivioln	*Ivioln	*	*Iempty	*	*Itenor	*	*Ivox	*	*Iempty	*Iempty
*I"Fundamento	*I"Violino 2do	*I"Violino 1mo	*	*I"Baſso	*	*I"Tenore	*	*I"Canto	*	*I"Clarino 2do ex D	*I"Clarino 1mo ex D
*I'bc	*I'vl 2	*I'vl 1	*	*I'B	*	*I'T	*	*I'C	*	*I'clar 1	*I'clar 1
*clefF4	*clefG2	*clefG2	*	*clefF4	*	*clefC4	*	*clefC1	*	*clefG2	*clefG2
*	*	*	*	*	*	*	*	*	*	*ITrd-1c-2	*ITrd-1c-2
*k[f#c#]	*k[f#c#]	*k[f#c#]	*	*k[f#c#]	*	*k[f#c#]	*	*k[f#c#]	*	*k[f#c#]	*k[f#c#]
*D:	*D:	*D:	*	*D:	*	*D:	*	*D:	*	*	*
*M4/4	*M4/4	*M4/4	*	*M4/4	*	*M4/4	*	*M4/4	*	*M4/4	*M4/4
*met(c)	*met(c)	*met(c)	*	*met(c)	*	*met(c)	*	*met(c)	*	*met(c)	*met(c)
=1	=1	=1	=1	=1	=1	=1	=1	=1	=1	=1	=1
*2\right	*2\right	*2\right	*	*2\right	*	*2\right	*	*2\right	*	*2\right	*2\right
!	!	!	!	!LO:SIC:o=D:v:t=w źródle 'D' znajduje się po lewej stronie przed kluczem i oznaczeniem metrum	!	!LO:SIC:o=D:v:t=w źródle 'D' znajduje się po lewej stronie przed kluczem i oznaczeniem metrum	!	!LO:SIC:o=D:v:t=w źródle 'D' znajduje się po lewej stronie przed kluczem i oznaczeniem metrum	!	!	!
!LO:SIC:o=Dixit:v:t=w źródle 'Dixit' znajduje się po lewej stronie przed kluczem i oznaczeniem metrum	!LO:SIC:o=Dixit:v:t=w źródle 'Dixit' znajduje się po lewej stronie przed kluczem i oznaczeniem metrum	!LO:SIC:o=Dixit:v:t=w źródle 'Dixit' znajduje się po lewej stronie przed kluczem i oznaczeniem metrum	!	!	!	!	!	!	!	!	!
!	!	!	!	!	!	!	!	!	!	!LO:SIC:o=Dixit Dominus:v:t=w źródle 'Dixit Dominus' znajduje się po lewej stronie przed kluczem i oznaczeniem metrum	!LO:SIC:o=Dixit Dominus:v:t=w źródle 'Dixit Dominus' znajduje się po lewej stronie przed kluczem i oznaczeniem metrum
!LO:TX:a:i:t=Allo n(on) molto:rj	!LO:TX:a:Bi:t=Allo non Molto:rj	!LO:TX:a:i:t=allo non molto:rj	!	!LO:TX:a:Bi:t=allo non Molto:rj	!	!LO:TX:a:i:t=allo.:rj	!	!LO:TX:a:i:t=allo non Molto:rj	!	!LO:TX:a:i:t=Allo n(on) Molto:rj	!LO:TX:a:i:t=Allo n(on) Molto:rj
8D\L	4ff#/ 4a/ 4d/	4ddd/ 4ff#/ 4d/	.	8D\L	Di-	4d\	Di-	4ff#\	Di-	4dd\	4ff#\
8E\	.	.	.	8E\J	.	.	.	.	.	.	.
8F#\	4ff#/ 4a/ 4d/	4ddd/ 4ff#/ 4d/	.	8F#\L	-xit	4d\	-xit	4ff#\	-xit	4dd\	4ff#\
8E\J	.	.	.	8E\J	.	.	.	.	.	.	.
8D\L	16ff#\LL	16aa\LL	.	8D\	Do-	16f#\	Do-	16aa\	Do-	8dd\L	8ff#\L
.	16ee\JJ	16gg\JJ	.	.	.	16e\	-mi-	16gg\	-mi-	.	.
.	8qqee/	.	.	.	.	8qqe/	.	8qqgg/	.	.	.
8D\	4.dd\	4.ff#\	.	8D\	-mi-	4.d\	-nus	4.ff#\	-nus	16dd\L	16ff#\L
.	.	.	.	.	.	.	.	.	.	16dd\JJ	16ff#\JJ
8D\	.	.	.	4d\	-nus	.	.	.	.	8dd\L	8ff#\L
8D\J	.	.	.	.	.	.	.	.	.	8dd\J	8ff#\J
=2	=2	=2	=2	=2	=2	=2	=2	=2	=2	=2	=2
!	!	!	!	!	!	!LO:TX:a:t=P:problem=w źródle dźwięk poprawiony innym atramentem z dźwieku 4A	!	!	!	!	!
!LO:TX:a:t=P:problem=mixed beam	!	!	!	!LO:TX:a:t=P:problem=mixed beam	!	!LO:TX:a:i:t=h	!	!	!	!	!
8G\L	16gg\LL	16bb\LL	.	8G\L	Do-	4B\	do-	4gg\	Do-	4dd\	4gg\
.	16b\	16dd\	.	.	.	.	.	.	.	.	.
8GG/	16dd\	16gg\	.	8GG/J	.	.	.	.	.	.	.
.	16gg\JJ	16bb\JJ	.	.	.	.	.	.	.	.	.
!	!	!	!	!	!	!LO:TX:a:t=P:problem=w źródle dźwięk poprawiony innym atramentem z dźwieku 8A	!	!	!	!	!
!	!	!	!	!	!	!LO:TX:a:i:t=h	!	!	!	!	!
8BB/	8bb\L	8ddd\L	.	8BB/	-mi-	8B\	-mi-	8gg\	-mi-	8r	8r
!	!	!	!	!	!	!LO:TX:a:t=P:problem=w źródle dźwięk poprawiony innym atramentem z dźwieku 8A	!	!	!	!	!
!	!	!	!	!	!	!LO:TX:a:i:t=h	!	!	!	!	!
8C#/J	8gg\J	8bb\J	.	8C#/	-no	8B\	-no	8gg\	-no	8dd\	8gg\
!	!	!	!	!	!	!LO:TX:a:t=P:problem=w źródle dźwięk poprawiony innym atramentem z dźwieku 8A	!	!	!	!	!
!	!	!	!	!	!	!LO:TX:a:i:t=h	!	!	!	!	!
8D\L	8gg\L	8bb\L	.	8d\	Me-	8B\	me-	8gg\	me-	8dd\L	8gg\L
!	!	!	!	!	!	!LO:TX:a:t=P:problem=w źródle dźwięk poprawiony innym atramentem z dźwieku 8A	!	!	!	!	!
!	!	!	!	!	!	!LO:TX:a:i:t=a	!	!	!	!	!
8D\	8ff#\J	8aa\J	.	8D/	-o	8A\	-o	8ff#\	-o	16dd\L	16ff#\L
.	.	.	.	.	.	.	.	.	.	16dd\JJ	16ff#\JJ
8F#\	4r	4r	.	4r	.	4r	.	4r	.	8dd\L	8ff#\L
8D\J	.	.	.	.	.	.	.	.	.	8dd\J	8ff#\J
=3	=3	=3	=3	=3	=3	=3	=3	=3	=3	=3	=3
*	*	*Xtuplet	*	*	*	*	*	*	*	*	*
.	.	8qqb/	.	.	.	.	.	.	.	.	.
8E\L	4c#/	4a/	.	4E\	ſe-	4c#\	ſe-	4ee\	ſe-	1a	1ee
8E\	.	.	.	.	.	.	.	.	.	.	.
8E\	32e/LLL	32cc#/LLL	.	8E\	-de	8c#\	-de	8ee\	-de	.	.
.	32d/JJ	32b/JJ	.	.	.	.	.	.	.	.	.
.	8.c#/J	8.a/J	.	.	.	.	.	.	.	.	.
!	!	!	!	!LO:SIC:s=a:v	!	!LO:SIC:s=a:v	!	!LO:SIC:s=a:v	!	!	!
8E\J	.	.	.	8E\	ad	8c#\	ad	8ee\	ad	.	.
8AA/L	32cc#\LLL	24ee\LL	.	4A\	de-	4e\	de-	4gg\	de-	.	.
.	32dd\J	.	.	.	.	.	.	.	.	.	.
.	.	24ff#\	.	.	.	.	.	.	.	.	.
!	!LO:N:vis=8	!	!	!	!	!	!	!	!	!	!
.	16ee\JJ	.	.	.	.	.	.	.	.	.	.
.	.	24gg\JJ	.	.	.	.	.	.	.	.	.
8AA/	4.ee\	4.gg\	.	.	.	.	.	.	.	.	.
8AA/	.	.	.	4A\	-xtris	4e\	-xtris	4gg\	-xtris	.	.
8AA/J	.	.	.	.	.	.	.	.	.	.	.
*	*	*tuplet	*	*	*	*	*	*	*	*	*
=4	=4	=4	=4	=4	=4	=4	=4	=4	=4	=4	=4
!	!	!	!	!LO:TX:a:t=P:problem=mixed beam	!	!LO:SIC:s=a:v	!	!	!	!	!
8AA/L	16ee\LL	16gg\LL	.	8A\L	a	4c#\	ad	4ee\	ad	4a/	4ee\
.	16cc#\	16ee\	.	.	.	.	.	.	.	.	.
8AA/	16a\	16cc#\	.	8AA/J	.	.	.	.	.	.	.
.	16cc#\JJ	16a\JJ	.	.	.	.	.	.	.	.	.
8C#/	8f#/L	8a/L	.	8C#/	de-	8e\	de-	8gg\	de-	8r	8r
8AA/J	8e/J	8g/J	.	8AA/	-xtris	8e\	-xtris	8gg\	-xtris	8a/	8ee\
8D\L	16d/LL	16f#/LL	.	8d\	me-	8d\	me-	8ff#\	.	8dd\L	8ff#\L
.	16c#/J	16e/J	.	.	.	.	.	.	.	.	.
8d\	8d/J	8d/J	.	8D/	-iſ	8d\	-iſ	8ff#\	.	16dd\L	16ff#\L
.	.	.	.	.	.	.	.	.	.	16dd\JJ	16ff#\JJ
8A\	8r	16r	.	4r	.	4r	.	4r	.	8dd\L	8ff#\L
.	.	16A/LL	.	.	.	.	.	.	.	.	.
8F#\J	16A/LL	16d/	.	.	.	.	.	.	.	8dd\J	8ff#\J
.	16d/JJ	16f#/JJ	.	.	.	.	.	.	.	.	.
=5	=5	=5	=5	=5	=5	=5	=5	=5	=5	=5	=5
!	!LO:TX:a:t=P:problem=mixed beam	!	!	!	!	!	!	!	!	!	!
8D\L	8f#/L	8a/L	.	4d\	Do-	4d\	do-	4ff#\	Do-	4dd\	4ff#\
8D\	8dd\J	8ff#/J 8a/ 8d/	.	.	.	.	.	.	.	.	.
8D\	4dd\	4ff#/ 4a/ 4d/	.	4D/	-nec	4d\	-nec	4ff#\	-nec	4dd\	4ff#\
8D\J	.	.	.	.	.	.	.	.	.	.	.
!	!	!LO:LB:g=original	!	!	!	!	!	!	!	!	!
8C#/L	16cc#\LL	16ee\LL	.	4c#\	po-	4c#\	po-	4ee\	po-	4a/	4ee\
.	16b\	16gg#X\	.	.	.	.	.	.	.	.	.
8C#/	16cc#\	16aa\	.	.	.	.	.	.	.	.	.
.	16a\JJ	16gg#\JJ	.	.	.	.	.	.	.	.	.
8C#/	8cc#\L	8aa\L	.	4C#/	-nam	4c#\	-nam	4ee\	-nam	8r	8r
8C#/J	8cc#\J	8ee\J	.	.	.	.	.	.	.	8a/	8ee\
!LO:LB:g=original	!	!	!	!	!	!	!	!	!	!	!
=6	=6	=6	=6	=6	=6	=6	=6	=6	=6	=6	=6
8BB/L	16cc#\LL	16ee\LL	.	8BB/	i-	8c#\	I-	8ee\	I-	1r	1r
.	16b\	16dd\	.	.	.	.	.	.	.	.	.
8BB/	16dd\	16ff#\	.	8BB/	-ni-	8c#\	-ni-	8ee\	-ni-	.	.
.	16cc#\JJ	16ee\JJ	.	.	.	.	.	.	.	.	.
8D/	16e/LL	16dd\LL	.	8D\	-mi-	16f#\LL	-mi-	16dd\LL	-mi-	.	.
.	16d/	16cc#\	.	.	.	16e\JJ	.	16cc#\JJ	.	.	.
8D/J	16c#/	16b\	.	8D\	-cos	16d\LL	-cos	16b\LL	-cos	.	.
.	16B/JJ	16a\JJ	.	.	.	16c#\JJ	.	16a\JJ	.	.	.
!	!	!	!	!LO:LB:g=original	!	!	!	!	!	!	!
8E\L	8c#/L	8a/L	.	8E\	tu-	8c#\	tu-	8a\	tu-	.	.
!	!	!	!	!	!	!	!	!LO:SIC:s=8g#:v	!	!	!
8E\	8B/J	8g#X/J	.	8E\	-os	8B\	-os	8g\	-os	.	.
!LO:SIC:s=8G#:v	!	!	!	!	!	!	!	!LO:SIC:s=ſca-:v	!	!	!
8G\	4ee\	4ee\	.	8G#X\L	ſca-	4c#\	ſca-	4ee\	ſa-	.	.
8F#\J	.	.	.	8F#\J	.	.	.	.	.	.	.
!	!LO:LB:g=original	!	!	!	!	!LO:LB:g=original	!	!	!	!	!
=7	=7	=7	=7	=7	=7	=7	=7	=7	=7	=7	=7
!	!	!	!	!	!	!	!	!	!	!	!LO:SIC:s=2ee:v
8E\L	4e/	4e/	.	4E\	-bel-	4c#\	-bel-	4ee\	-bel-	2ee\	2dd\
8E\	.	.	.	.	.	.	.	.	.	.	.
8E\	16cc#/LL	16ee\LL	.	4E\	-lum	4B\	-lum	4dd\	-lum	.	.
.	16a/	16cc#\	.	.	.	.	.	.	.	.	.
8E\J	16b/	16dd\	.	.	.	.	.	.	.	.	.
.	16g#X/JJ	16b\JJ	.	.	.	.	.	.	.	.	.
8E\L	16a\LL	16cc#\LL	.	4E\	pe-	8A\L	pe-	8cc#\L	pe-	4ee\	4ee\
.	16cc#\	16ee\	.	.	.	.	.	.	.	.	.
8E\	16b\	16dd\	.	.	.	8B\J	.	8dd\J	.	.	.
.	16dd\JJ	16ff#\JJ	.	.	.	.	.	.	.	.	.
.	8qqdd/	8qqff#/	.	.	.	.	.	.	.	.	.
8E\	4cc#\	4ee\	.	4E\	-dum	4c#\	-dum	4ee\	-dum	4r	4r
8E\J	.	.	.	.	.	.	.	.	.	.	.
!	!	!	!	!	!	!	!	!LO:LB:g=original	!	!	!
=8	=8	=8	=8	=8	=8	=8	=8	=8	=8	=8	=8
*tremolo	*	*	*	*	*	*	*	*	*	*	*
8E\L	4e/	4e/	.	4E\	pe-	4c#\	pe-	4ee\	pe-	2ee\	2ee\
8E\	.	.	.	.	.	.	.	.	.	.	.
8E\	16cc#/LL	16ee\LL	.	8E\	-dum	8B\	-dum	8dd\	-dum	.	.
.	16a/	16cc#\	.	.	.	.	.	.	.	.	.
8E\J	16b/	16dd\	.	8E\	tu-	8B\	tu-	8dd\	tu-	.	.
.	16g#X/JJ	16b\JJ	.	.	.	.	.	.	.	.	.
8E\L	16a\LL	16cc#\LL	.	4E\	-o-	8A\L	-o-	8cc#\L	-o-	4ee\	4ee\
.	16cc#\	16ee\	.	.	.	.	.	.	.	.	.
8E\	16b\	16dd\	.	.	.	8B\J	.	8dd\J	.	.	.
.	16dd\JJ	16ff#\JJ	.	.	.	.	.	.	.	.	.
.	8qqdd/	8qqff#/	.	.	.	.	.	.	.	.	.
8E\	4cc#\	4ee\	.	4E\	-rum	4c#\	-rum	4ee\	-rum	4r	4r
8E\J	.	.	.	.	.	.	.	.	.	.	.
*Xtremolo	*	*	*	*	*	*	*	*	*	*	*
!	!	!	!	!	!	!	!	!	!	!	!LO:LB:g=original
=9	=9	=9	=9	=9	=9	=9	=9	=9	=9	=9	=9
!	!	!	!	!	!	!LO:SIC:s=ſca-:v	!	!	!	!	!
8D/L	4dd\	4ff#\	.	8d\L	ſca-	4d\	ſa-	4ff#\	ſca-	4dd\	4ff#\
!	!	!	!	!LO:SIC:s=8B:v	!	!	!	!	!	!	!
8BB/	.	.	.	8c#\J	.	.	.	.	.	.	.
8E/	4b\	4gg#X\	.	8E\L	.	4B\	.	4gg#X\	.	8r	8r
8D/J	.	.	.	8D\J	.	.	.	.	.	8dd\	8ff#\
!	!	!	!	!	!	!	!	!	!	!LO:LB:g=original	!
!	!	!	!	!LO:SIC:s=-bel-:v	!	!	!	!	!	!	!
8C#/L	8cc#\L	16aa\LL	.	8C#\L	-pel-	8c#\L	-bel-	8aa\L	-bel-	8a\L	8ee\L
.	.	16ee\	.	.	.	.	.	.	.	.	.
8D/	8b\J	16ff#\	.	8D\J	.	8B\J	.	8dd\J	.	8dd\	8ff#\
.	.	16dd\JJ	.	.	.	.	.	.	.	.	.
8E/	8a/L	8cc#\L	.	4E\	-lum	8A/L	-lum	8cc#\L	-lum	8ee\	8ee\
8EE/J	8g#X/J	8b\J	.	.	.	8G#X/J	.	8b\J	.	8ee\J	8ee\J
=10	=10	=10	=10	=10	=10	=10	=10	=10	=10	=10	=10
8D/L	4dd\	4ff#\	.	8D/L	pe-	4d\	pe-	4ff#\	pe-	4dd\	4ff#\
8BB/	.	.	.	8BB/J	.	.	.	.	.	.	.
8E/	4b\	4gg#X\	.	8E\	-dum	8B\	-dum	8gg#X\	-Dum	8r	8r
8D/J	.	.	.	8D\	tu-	8B\	tu-	8gg#\	tu-	8dd\	8ff#\
8C#/L	8cc#\L	16aa\LL	.	8C#/L	-o-	8c#\L	-o-	8aa\L	-o-	8a\L	8ee\L
.	.	16ee\	.	.	.	.	.	.	.	.	.
8D/	8b\J	16ff#\	.	8D/	.	8B\	.	8dd\	.	8dd\	8ff#\
.	.	16dd\JJ	.	.	.	.	.	.	.	.	.
8E/	8a/L	8cc#\L	.	8E/	.	8A\	.	8cc#\	.	8ee\	8ee\
8EE/J	8g#X/J	8b\J	.	8E/J	.	8G#X\J	.	8b\J	.	8ee\J	8ee\J
!	!	!LO:LB:g=original	!	!	!	!	!	!	!	!	!
=11	=11	=11	=11	=11	=11	=11	=11	=11	=11	=11	=11
!	!	!	!	!	!	!	!	!	!	!LO:TX:a:t=P:problem=takty 11-17 w clarino nie zgadzają się do końca z resztą	!LO:TX:a:t=P:problem=takty 11-17 w clarino nie zgadzają się do końca z resztą
8AA/L	8cc#\L	8a\L	.	4AA/	-rum	4A\	-rum	4a\	-rum	4a/	4ee\
8AA/	8cc#\	8ee\J	.	.	.	.	.	.	.	.	.
8AA/	8cc#\	16ee\LL	.	4r	.	4r	.	4r	.	8r	8r
.	.	16cc#\	.	.	.	.	.	.	.	.	.
8AA/J	8cc#\J	16b\	.	.	.	.	.	.	.	8a/	8ee\
.	.	16a\JJ	.	.	.	.	.	.	.	.	.
*tremolo	*	*	*	*	*	*	*	*	*	*	*
8D\L	16dd\LL	16ff#\LL	.	2r	.	2r	.	2r	.	8dd\L	8ff#\L
.	16b\	16dd\	.	.	.	.	.	.	.	.	.
8D\	16b\	16dd\	.	.	.	.	.	.	.	8dd\J	8ff#\J
.	16dd\JJ	16ff#\JJ	.	.	.	.	.	.	.	.	.
.	8qqdd/	8qqff#/	.	.	.	.	.	.	.	.	.
8D\	4cc#\	4ee\	.	.	.	.	.	.	.	4a/	4ee\
8D\J	.	.	.	.	.	.	.	.	.	.	.
=12	=12	=12	=12	=12	=12	=12	=12	=12	=12	=12	=12
!	!	!LO:TX:a:t=P:problem=mixed beam	!	!LO:TX:a:t=14	!	!	!	!LO:TX:a:t=3	!	!	!
8E\L	8b\L	8e/L	.	00r	.	00r	.	00r	.	4a/	4ee\
8E\	8b\	8dd\J	.	.	.	.	.	.	.	.	.
8E\	8b\	16dd/LL	.	.	.	.	.	.	.	8r	8r
.	.	16b/	.	.	.	.	.	.	.	.	.
8E\J	8b\J	16g#X/	.	.	.	.	.	.	.	8a/	8ee\
.	.	16e/JJ	.	.	.	.	.	.	.	.	.
*Xtremolo	*	*	*	*	*	*	*	*	*	*	*
8A\L	16a/LL	16b/LL	.	.	.	.	.	.	.	8ee\L	8ee\L
.	16c#/	16a/	.	.	.	.	.	.	.	.	.
8E\	16B/	16g#X/	.	.	.	.	.	.	.	8ee\J	8ee\J
.	16d/JJ	16b/JJ	.	.	.	.	.	.	.	.	.
.	8qqd/	8qqb/	.	.	.	.	.	.	.	.	.
8C#\	4c#/	4a/	.	.	.	.	.	.	.	4a/	4ee\
8AA\J	.	.	.	.	.	.	.	.	.	.	.
=13	=13	=13	=13	=13	=13	=13	=13	=13	=13	=13	=13
*tremolo	*	*	*	*	*	*	*	*	*	*	*
8AA/L	8cc#\L	8a\L	.	.	.	.	.	.	.	4a/	4ee\
8AA/	8cc#\	8ee\J	.	.	.	.	.	.	.	.	.
8AA/	8cc#\	16ee\LL	.	.	.	.	.	.	.	8r	8r
.	.	16cc#\	.	.	.	.	.	.	.	.	.
8AA/J	8cc#\J	16b\	.	.	.	.	.	.	.	8a/	8ee\
.	.	16a\JJ	.	.	.	.	.	.	.	.	.
8D\L	16dd\LL	16ff#\LL	.	.	.	.	.	.	.	8dd\L	8ff#\L
.	16b\	16dd\	.	.	.	.	.	.	.	.	.
8D\	16b\	16dd\	.	.	.	.	.	.	.	8dd\J	8ff#\J
.	16dd\JJ	16ff#\JJ	.	.	.	.	.	.	.	.	.
.	8qqdd/	8qqff#/	.	.	.	.	.	.	.	.	.
8D\	4cc#\	4ee\	.	.	.	.	.	.	.	4a/	4ee\
8D\J	.	.	.	.	.	.	.	.	.	.	.
*Xtremolo	*	*	*	*	*	*	*	*	*	*	*
!LO:LB:g=original	!LO:LB:g=original	!	!	!	!	!	!	!	!	!	!
=14	=14	=14	=14	=14	=14	=14	=14	=14	=14	=14	=14
!	!	!LO:TX:a:t=P:problem=mixed beam	!	!	!	!	!	!	!	!	!
8E\L	8b\L	8e/L	.	.	.	.	.	.	.	4a/	4ee\
8E\	8b\	8dd\J	.	.	.	.	.	.	.	.	.
8E\	8b\	16dd/LL	.	.	.	.	.	.	.	8r	8r
.	.	16b/	.	.	.	.	.	.	.	.	.
8E\J	8b\J	16g#X/	.	.	.	.	.	.	.	8a/	8ee\
.	.	16e/JJ	.	.	.	.	.	.	.	.	.
8A\L	16a/LL	16b/LL	.	.	.	.	.	.	.	8ee\L	8ee\L
.	16c#/	16a/	.	.	.	.	.	.	.	.	.
8E\J	16B/	16g#X/	.	.	.	.	.	.	.	8ee\J	8ee\J
.	16d/JJ	16b/JJ	.	.	.	.	.	.	.	.	.
.	8qqd/	8qqb/	.	.	.	.	.	.	.	.	.
8C#/L	4c#/	4a/	.	.	.	.	.	.	.	4a/	4ee\
8AA/J	.	.	.	.	.	.	.	.	.	.	.
=15	=15	=15	=15	=15	=15	=15	=15	=15	=15	=15	=15
8D/L	8dd\L	16ff#\LL	.	.	.	.	.	.	.	4dd\	4ff#\
.	.	16ff#\J	.	.	.	.	.	.	.	.	.
8BB/	16dd\L	8ff#\J	.	.	.	.	.	.	.	.	.
.	16dd\JJ	.	.	.	.	.	.	.	.	.	.
8E/	8b\L	16gg#X\LL	.	.	.	.	.	.	.	4a/	4ee\
.	.	16gg#\J	.	.	.	.	.	.	.	.	.
8D/J	16b\L	8gg#\J	.	.	.	.	.	.	.	.	.
.	16b\JJ	.	.	.	.	.	.	.	.	.	.
8C#/L	8cc#\L	16aa\LL	.	.	.	.	.	.	.	4a/	4ee\
.	.	16ee\	.	.	.	.	.	.	.	.	.
8D/	8b\	16ff#\	.	.	.	.	.	.	.	.	.
.	.	16dd\JJ	.	.	.	.	.	.	.	.	.
8E/	8a\	8cc#\L	.	.	.	.	.	.	.	8ee\L	8ee\L
!	!LO:SIC:s=8g#:v	!	!	!	!	!	!	!	!	!	!
8EE/J	8g\J	8b\J	.	.	.	.	.	.	.	8ee\J	8ee\J
=16	=16	=16	=16	=16	=16	=16	=16	=16	=16	=16	=16
8D/L	8dd\L	16ff#\LL	.	00r	.	00r	.	1r	.	4dd\	4ff#\
.	.	16ff#\J	.	.	.	.	.	.	.	.	.
8BB/	16dd\L	8ff#\J	.	.	.	.	.	.	.	.	.
.	16dd\JJ	.	.	.	.	.	.	.	.	.	.
8E/	8b\L	16gg#X\LL	.	.	.	.	.	.	.	4a/	4ee\
.	.	16gg#\J	.	.	.	.	.	.	.	.	.
8D/J	16b\L	8gg#\J	.	.	.	.	.	.	.	.	.
.	16b\JJ	.	.	.	.	.	.	.	.	.	.
!	!	!LO:LB:g=original	!	!	!	!	!	!	!	!	!
8C#/L	8cc#\L	16aa\LL	.	.	.	.	.	.	.	4a/	4ee\
.	.	16ee\	.	.	.	.	.	.	.	.	.
8D/	8b\	16ff#\	.	.	.	.	.	.	.	.	.
.	.	16dd\JJ	.	.	.	.	.	.	.	.	.
8E/	8a\	8cc#\L	.	.	.	.	.	.	.	8ee\L	8ee\L
!	!LO:SIC:s=8g#:v	!	!	!	!	!	!	!	!	!	!
8EE/J	8g\J	8b\J	.	.	.	.	.	.	.	8ee\J	8ee\J
=17	=17	=17	=17	=17	=17	=17	=17	=17	=17	=17	=17
!	!LO:TX:a:t=P:problem=znak początku repetycji	!	!	!	!	!	!	!	!	!	!
!LO:TX:a:i:t=Solo	!	!	!	!	!	!	!	!LO:TX:a:i:t=Solo	!	!	!
!	!	!	!LO:DY:b	!	!	!	!	!	!	!	!
8AA/L	8a\L	8a\L	p	.	.	.	.	8r	.	4a/	4ee\
8AA/	8cc#\	8ee\	.	.	.	.	.	8ee\	Vir-	.	.
8AA/	8cc#\	8ee\	.	.	.	.	.	16dd\LL	-gam	4r	4r
.	.	.	.	.	.	.	.	16cc#\JJ	.	.	.
8AA/J	8cc#\J	8ee\J	.	.	.	.	.	16b\LL	vir-	.	.
.	.	.	.	.	.	.	.	16a\JJ	.	.	.
*tremolo	*tremolo	*	*	*	*	*	*	*	*	*	*
8AA/L	8dd\L	8ff#\L	.	.	.	.	.	4ff#\	-tu-	2r	2r
8AA/	8dd\	16ff#\L	.	.	.	.	.	.	.	.	.
.	.	16ff#\JJ	.	.	.	.	.	.	.	.	.
8AA/	8dd\	8ff#\L	.	.	.	.	.	16ee\LL	-tis	.	.
.	.	.	.	.	.	.	.	16dd\JJ	.	.	.
8AA/J	8dd\J	8ff#\J	.	.	.	.	.	16cc#\LL	vir-	.	.
.	.	.	.	.	.	.	.	16b\JJ	.	.	.
*	*Xtremolo	*	*	*	*	*	*	*	*	*	*
!	!	!	!	!	!	!	!	!	!	!	!LO:LB:g=original
=18	=18	=18	=18	=18	=18	=18	=18	=18	=18	=18	=18
!	!LO:TX:a:t=bis:rj	!	!	!	!	!	!	!	!	!	!LO:TX:a:t=8
8E\L	8b\L	8gg#X\L	.	.	.	.	.	4.gg#X\	-tu-	00r	00r
8E\	8b\	8gg#\	.	.	.	.	.	.	.	.	.
8E\	8b\	8gg#\	.	.	.	.	.	.	.	.	.
8E\J	8b\J	8gg#\J	.	.	.	.	.	8gg#\	-tis	.	.
*Xtremolo	*	*	*	*	*	*	*	*	*	*	*
16E\LL	8cc#\L	16aa\LL	.	.	.	.	.	8aa\	tu-	.	.
16G#X\	.	16ee\	.	.	.	.	.	.	.	.	.
.	.	.	.	.	.	.	.	8qqb/	.	.	.
16A\	16cc#\L	16ee\	.	.	.	.	.	8a\	-ae	.	.
16E\JJ	16b\JJ	16dd\JJ	.	.	.	.	.	.	.	.	.
.	8qqb/	8qqdd/	.	.	.	.	.	.	.	.	.
8C#/L	4a\	4cc#\	.	.	.	.	.	4r	.	.	.
8AA/J	.	.	.	.	.	.	.	.	.	.	.
!	!LO:TX:a:t=P:problem=znak końca repetycji	!	!	!	!	!	!	!	!	!	!
=19	=19	=19	=19	=19	=19	=19	=19	=19	=19	=19	=19
*tremolo	*	*	*	*	*	*	*	*	*	*	*
*	*rep	*	*	*	*	*	*	*	*	*	*
!	!LO:TX:a:t=P:problem=powtórzenie taktów oznaczone znakami repetycji	!	!	!	!	!	!	!	!	!	!
8AA/L	8a\L	8ee\L	.	.	.	.	.	8r	.	.	.
8AA/	8cc#\	8ee\	.	.	.	.	.	8ee\	E-	.	.
8AA/	8cc#\	8ee\	.	.	.	.	.	16dd\LL	-mi-	.	.
.	.	.	.	.	.	.	.	16cc#\JJ	.	.	.
8AA/J	8cc#\J	8ee\J	.	.	.	.	.	16b\LL	-tet	.	.
.	.	.	.	.	.	.	.	16a\JJ	.	.	.
*	*tremolo	*tremolo	*	*	*	*	*	*	*	*	*
8AA/L	8dd\L	8ff#\L	.	.	.	.	.	4ff#\	Do-	.	.
8AA/	8dd\	8ff#\	.	.	.	.	.	.	.	.	.
!	!	!	!	!	!	!	!	!LO:LB:g=original	!	!	!
8AA/	8dd\	8ff#\	.	.	.	.	.	16ee\LL	-mi-	.	.
.	.	.	.	.	.	.	.	16dd\JJ	.	.	.
8AA/J	8dd\J	8ff#\J	.	.	.	.	.	16cc#\LL	-nus	.	.
.	.	.	.	.	.	.	.	16b\JJ	.	.	.
*	*Xtremolo	*	*	*	*	*	*	*	*	*	*
=20	=20	=20	=20	=20	=20	=20	=20	=20	=20	=20	=20
8E\L	8b\L	8gg#X\L	.	00r	.	00r	.	2gg#X\	ex	.	.
8E\	8b\	8gg#X\	.	.	.	.	.	.	.	.	.
8E\	8b\	8gg#X\	.	.	.	.	.	.	.	.	.
8E\J	8b\J	8gg#X\J	.	.	.	.	.	.	.	.	.
*Xtremolo	*	*Xtremolo	*	*	*	*	*	*	*	*	*
16E\LL	8cc#\L	16aa\LL	.	.	.	.	.	8aa\	ſi-	.	.
16G#X\	.	16ee\	.	.	.	.	.	.	.	.	.
.	.	.	.	.	.	.	.	8qqb/	.	.	.
16A\	16cc#\L	16ee\	.	.	.	.	.	8a\	-on	.	.
16E\JJ	16b\JJ	16dd\JJ	.	.	.	.	.	.	.	.	.
.	8qqb/	8qqdd/	.	.	.	.	.	.	.	.	.
8C#/L	4a\	4cc#\	.	.	.	.	.	4r	.	.	.
8AA/J	.	.	.	.	.	.	.	.	.	.	.
*	*Xrep	*	*	*	*	*	*	*	*	*	*
=21	=21	=21	=21	=21	=21	=21	=21	=21	=21	=21	=21
*tremolo	*	*	*	*	*	*	*	*	*	*	*
8E\L	4g#X/	4b\	.	.	.	.	.	4.b\	Do-	.	.
8E\	.	.	.	.	.	.	.	.	.	.	.
8E\	8g#/L	8b\L	.	.	.	.	.	.	.	.	.
8E\J	8cc#/J	8ee\J	.	.	.	.	.	8ee\	-mi-	.	.
8E\L	16cc#/LL	16ee\LL	.	.	.	.	.	8dd\L	-na-	.	.
.	16b/	16dd\	.	.	.	.	.	.	.	.	.
8E\	16b/	16dd\	.	.	.	.	.	8cc#\J	.	.	.
.	16a/JJ	16cc#\JJ	.	.	.	.	.	.	.	.	.
.	8qqa/	8qqcc#/	.	.	.	.	.	8qqee/	.	.	.
8E\	4b\	4dd\	.	.	.	.	.	4dd\	-re	.	.
8E\J	.	.	.	.	.	.	.	.	.	.	.
*Xtremolo	*	*	*	*	*	*	*	*	*	*	*
!LO:LB:g=original	!	!	!	!	!	!	!	!	!	!	!
=22	=22	=22	=22	=22	=22	=22	=22	=22	=22	=22	=22
8E\L	4g#X/	4b\	.	.	.	.	.	4.b\	in	00r	00r
8E\	.	.	.	.	.	.	.	.	.	.	.
8E\	8g#/L	8b\L	.	.	.	.	.	.	.	.	.
8G#X\J	8b/J	8dd\J	.	.	.	.	.	8dd\	me-	.	.
.	.	.	.	.	.	.	.	8qqdd/	.	.	.
8A\L	16b/LL	16dd\LL	.	.	.	.	.	8cc#\	-di-	.	.
.	16a/	16cc#\	.	.	.	.	.	.	.	.	.
8E\J	16a/	16cc#\	.	.	.	.	.	8b\	-o	.	.
.	16g#/JJ	16b\JJ	.	.	.	.	.	.	.	.	.
.	8qqg#/	.	.	.	.	.	.	8qqb/	.	.	.
8C#/L	4a/	4cc#\	.	.	.	.	.	4cc#\	.	.	.
8AA/J	.	.	.	.	.	.	.	.	.	.	.
=23	=23	=23	=23	=23	=23	=23	=23	=23	=23	=23	=23
8AA/L	4cc#\	4ee\	.	.	.	.	.	4ee\	I-	.	.
8AA/	.	.	.	.	.	.	.	.	.	.	.
8AA/	8cc#\L	8ee\L	.	.	.	.	.	8ee\	-ni-	.	.
8AA/J	8ff#\J	8aa\J	.	.	.	.	.	8aa\	-mi-	.	.
!	!LO:LB:g=original	!LO:LB:g=original	!	!	!	!	!	!	!	!	!
*tremolo	*	*	*	*	*	*	*	*	*	*	*
8AA/L	16ff#\LL	16aa\LL	.	.	.	.	.	8gg\L	-Co-	.	.
.	16ee\	16ggn\	.	.	.	.	.	.	.	.	.
8AA/	16ee\	16gg\	.	.	.	.	.	8ff#\J	.	.	.
.	16dd\JJ	16ff#\JJ	.	.	.	.	.	.	.	.	.
.	8qqdd/	.	.	.	.	.	.	8qqff#/	.	.	.
8AA/	4ee\	4gg\	.	.	.	.	.	4gg\	-rum	.	.
8AA/J	.	.	.	.	.	.	.	.	.	.	.
*Xtremolo	*	*	*	*	*	*	*	*	*	*	*
=24	=24	=24	=24	=24	=24	=24	=24	=24	=24	=24	=24
*	*	*	*	*	*	*	*	*	*ij	*	*
!LO:TX:a:t=P:problem=mixed beam	!	!	!	!	!	!	!	!	!	!	!
8AA/L	4cc#\	4ee\	.	0r	.	0r	.	4ee\	I-	.	.
8A\	.	.	.	.	.	.	.	.	.	.	.
8A\	8cc#\L	8ee\L	.	.	.	.	.	8ee\	-ni-	.	.
8A\J	8ee\J	8gg\J	.	.	.	.	.	8gg\	-mi-	.	.
.	.	.	.	.	.	.	.	8qqgg/	.	.	.
8d\L	16ee\LL	16gg\LL	.	.	.	.	.	8ff#\L	-Co-	.	.
.	16dd\	16ff#\	.	.	.	.	.	.	.	.	.
8A\	16dd\	16ff#\	.	.	.	.	.	8ee\J	.	.	.
.	16cc#\JJ	16ee\JJ	.	.	.	.	.	.	.	.	.
.	8qqcc#/	8qqee/	.	.	.	.	.	8qqee/	.	.	.
8F#\	4dd\	4ff#\	.	.	.	.	.	4ff#\	-rum	.	.
8D\J	.	.	.	.	.	.	.	.	.	.	.
*	*	*	*	*	*	*	*	*	*Xij	*	*
=25	=25	=25	=25	=25	=25	=25	=25	=25	=25	=25	=25
8D\L	8.dd\L	8ff#\L	.	.	.	.	.	8.ff#\L	-tu-	.	.
8D\	.	16gg\L	.	.	.	.	.	.	.	.	.
.	32ee\LL	16aa\JJ	.	.	.	.	.	32gg\LL	.	.	.
.	32ff#\JJJ	.	.	.	.	.	.	32aa\JJJ	.	.	.
8G#X\	8ee\L	8gg\L	.	.	.	.	.	8gg\L	.	.	.
8G#\J	8dd\J	8ff#\J	.	.	.	.	.	8ff#\J	.	.	.
!	!	!	!	!	!	!	!	!LO:SIC:s=-o-:v	!	!	!
8A\L	4dd\	4ff#\	.	.	.	.	.	4ff#\	.	.	.
16A\L	.	.	.	.	.	.	.	.	.	.	.
16B\JJ	.	.	.	.	.	.	.	.	.	.	.
16A\LL	4cc#\	4ee\	.	.	.	.	.	4ee\	-rum	.	.
16Gn\	.	.	.	.	.	.	.	.	.	.	.
16F#\	.	.	.	.	.	.	.	.	.	.	.
16E\JJ	.	.	.	.	.	.	.	.	.	.	.
!	!	!	!	!LO:LB:g=original	!	!	!	!	!	!	!
=26	=26	=26	=26	=26	=26	=26	=26	=26	=26	=26	=26
!LO:TX:a:i:t=Tutti:rj	!	!	!	!	!	!	!	!	!	!	!
8D\L	4ff#/ 4a/ 4d/	4ddd/ 4ff#/ 4d/	.	8D\L	Te-	4d\	Te-	4ff#\	Te-	4dd\	4ff#\
8E\	.	.	.	8E\J	.	.	.	.	.	.	.
8F#\	4ff#/ 4a/ 4d/	4ddd/ 4ff#/ 4d/	.	8F#\	-cum	8d\	-cum	8ff#\	-cum	4dd\	4ff#\
8E\J	.	.	.	8E\	prin-	8d\	prin-	8ff#\	prin-	.	.
!	!	!	!	!	!	!	!	!	!	!LO:LB:g=original	!
*tremolo	*	*	*	*	*	*	*	*	*	*	*
8D\L	16ff#\LL	16aa\LL	.	8D\	-ci-	16f#\	-ci-	16aa\	-ci-	8dd\L	8ff#\L
.	16ee\JJ	16gg\JJ	.	.	.	16e\	-pi-	16gg\	pi-	.	.
!	!	!	!	!	!	!	!	!LO:LB:g=original	!	!	!
.	8qqee/	.	.	.	.	8qqe/	.	.	.	.	.
8D\	4.dd\	4.ff#\	.	8D\	-pi-	4d\	-um	4ff#\	-um	16dd\L	16ff#\L
.	.	.	.	.	.	.	.	.	.	16dd\JJ	16ff#\JJ
8D\	.	.	.	8D\	-um	.	.	.	.	8dd\L	8ff#\L
!	!	!	!	!	!	!LO:TX:a:t=P:problem=w źródle sylaba 'in' po łamaniu systemu, przed nutami	!	!	!	!	!
8D\J	.	.	.	8D\	in	8d\	in	8ff#\	In	8dd\J	8ff#\J
*Xtremolo	*	*	*	*	*	*	*	*	*	*	*
!	!	!	!	!	!	!LO:LB:g=original	!	!	!	!	!
=27	=27	=27	=27	=27	=27	=27	=27	=27	=27	=27	=27
!LO:TX:a:t=P:problem=mixed beam	!	!	!	!	!	!	!	!	!	!	!
8G\L	16gg\LL	16bb\LL	.	8G\	di-	8B\	di-	8ff#\	di-	4dd\	4gg\
.	16b\	16dd\	.	.	.	.	.	.	.	.	.
!	!	!	!	!LO:SIC:s=-e:v	!	!LO:SIC:s=-e:v	!	!	!	!	!
8GG/	16dd\	16gg\	.	16GG/	-ae	16B\	-ae	16gg\	-e	.	.
.	16gg\JJ	16bb\JJ	.	16GG/	vir-	16B\	vir-	16gg\	vir-	.	.
8BB/	8bb\L	8ddd\L	.	8BB/	-tu-	8B\	-tu-	8gg\	-tu-	8r	8r
8C#/J	8gg\J	8bb\J	.	8C#/	-tiſ	8B\	-tiſ	8gg\	-tis	8dd\	8gg\
8D\L	8gg\L	8bb\L	.	8D\	tu-	8B\	tu-	8gg\	tu-	8dd\L	8gg\L
8D\	8ff#\J	8aa\J	.	8D\	-ae	8A\	-ae	8ff#\	-ae	16dd\L	16ff#\L
.	.	.	.	.	.	.	.	.	.	16dd\JJ	16ff#\JJ
8F#\	4r	4r	.	4r	.	4r	.	4r	.	8dd\L	8ff#\L
8D\J	.	.	.	.	.	.	.	.	.	8dd\J	8ff#\J
=28	=28	=28	=28	=28	=28	=28	=28	=28	=28	=28	=28
*tremolo	*Xtuplet	*Xtuplet	*	*	*	*	*	*	*	*	*
8AA/L	4c#/	4a/	.	4A\	In	4c#\	in	4ee\	In	1a	1ee
8AA/	.	.	.	.	.	.	.	.	.	.	.
8AA/	32e/LLL	32cc#/LLL	.	4A\	splen-	4c#\	splen-	4ee\	splen-	.	.
.	32d/JJ	32b/JJ	.	.	.	.	.	.	.	.	.
.	8.c#/J	8.a/J	.	.	.	.	.	.	.	.	.
8AA/J	.	.	.	.	.	.	.	.	.	.	.
8AA/L	24cc#\LL	24ee\LL	.	4A\	-do-	4e\	-do-	4gg\	-do-	.	.
.	24dd\	24ff#\	.	.	.	.	.	.	.	.	.
.	24ee\JJ	24gg\JJ	.	.	.	.	.	.	.	.	.
8AA/	4.ee\	4.gg\	.	.	.	.	.	.	.	.	.
8AA/	.	.	.	8AA/	-ri-	8e\	-ri-	8.gg\	-ri-	.	.
8AA/J	.	.	.	8AA/	-bus	8e\	-buſ	.	.	.	.
.	.	.	.	.	.	.	.	16gg\	-bus	.	.
*Xtremolo	*tuplet	*tuplet	*	*	*	*	*	*	*	*	*
=29	=29	=29	=29	=29	=29	=29	=29	=29	=29	=29	=29
8C#/L	16ee\LL	16gg\LL	.	4C#/	san-	4c#\	san-	4ee\	ſan-	4a/	4ee\
.	16cc#\	16ee\	.	.	.	.	.	.	.	.	.
8C#/	16a\	16cc#\	.	.	.	.	.	.	.	.	.
.	16cc#\JJ	16a\JJ	.	.	.	.	.	.	.	.	.
8AA/	8f#/L	8a/L	.	4AA/	.	4e\	.	4gg\	.	8r	8r
8AA/J	8e/J	8g/J	.	.	.	.	.	.	.	8a/	8ee\
!	!	!LO:LB:g=original	!	!	!	!	!	!	!	!	!
!LO:TX:a:t=P:problem=mixed beam	!	!	!	!	!	!	!	!	!	!	!
8D/L	16d/LL	16a/LL	.	8d\	-cto-	8d\	-cto-	8ff#\	-cto-	8dd\L	8ff#\L
.	16c#/J	16g/J	.	.	.	.	.	.	.	.	.
8d\J	8d/J	8f#/J	.	8D/	-rum	8d\	-rum	8ff#\	-rum	16dd\L	16ff#\L
.	.	.	.	.	.	.	.	.	.	16dd\JJ	16ff#\JJ
16A\LL	8r	16r	.	8r	.	8r	.	8r	.	8dd\	8ff#\
16G\	.	16A/LL	.	.	.	.	.	.	.	.	.
16F#\	16A/LL	16d/	.	8D/	ex	8F#/	ex	8a\	ex	8r	8r
16E\JJ	16d/JJ	16f#/JJ	.	.	.	.	.	.	.	.	.
!LO:LB:g=original	!	!	!	!	!	!	!	!	!	!	!
=30	=30	=30	=30	=30	=30	=30	=30	=30	=30	=30	=30
*tremolo	*	*	*	*	*	*	*	*	*	*	*
8D\L	8f#/L	8a\L	.	4d\	u-	4F#/	ut-	4a\	u-	00r	00r
8D\	8a/J	8ccn\J	.	.	.	.	.	.	.	.	.
!	!	!	!	!	!	!	!	!LO:TX:a:t=P:problem=w źródle krzyżyk w fukcji kasownika	!	!	!
!	!	!	!	!	!	!	!	!LO:SIC:s=8ccn:v	!	!	!
8D\	4a/	4cc\	.	8D/	-te-	8G/	.	8cc#X\	-te-	.	.
!	!	!	!	!	!	!	!	!LO:SIC:s=8ccn:v	!	!	!
8D\J	.	.	.	8D/	-ro	8G/	-ro	8cc#\	-ro	.	.
!	!LO:LB:g=original	!	!	!LO:LB:g=original	!	!	!	!	!	!	!
!	!	!	!	!	!	!	!	!LO:SIC:s=4ccn:v	!	!	!
8D\L	16a\LL	8cc\L	.	4D/	an-	4A\	an-	4cc#\	an-	.	.
.	16dd\J	.	.	.	.	.	.	.	.	.	.
8D\	8ff#\J	16ff#\L	.	.	.	.	.	.	.	.	.
.	.	16gg\JJ	.	.	.	.	.	.	.	.	.
8D\	4ff#\	4aa\	.	8d\	-te	8d\	-te	8ff#\	-te	.	.
8D\J	.	.	.	8d\	lu-	8d\	lu-	8ff#\	lu-	.	.
*Xtremolo	*	*	*	*	*	*	*	*	*	*	*
=31	=31	=31	=31	=31	=31	=31	=31	=31	=31	=31	=31
!	!	!	!	!	!	!LO:TX:a:t=P:problem=w źródle dźwięk poprawiony innym atramentem z dźwieku 8a	!	!	!	!	!
!	!	!	!	!	!	!LO:TX:a:t=fis:rj	!	!	!	!	!
!	!	!	!	!	!	!LO:TX:a:t=P:problem=mixed beam	!	!	!	!	!
8D\L	16ff#\LL	16aa\LL	.	4D\	-ci-	8f#\L	-ci-	8aa\L	-ci-	.	.
.	16ee\	16gg\	.	.	.	.	.	.	.	.	.
!	!	!	!	!	!	!	!	!LO:TX:a:t=P:problem=w źródle krzyżyk w fukcji kasownika	!	!	!
!	!	!	!	!	!	!	!	!LO:SIC:s=8ccn:v	!	!	!
8D\	16dd\	16ff#\	.	.	.	8G/J	.	8cc#X\J	.	.	.
!	!LO:SIC:s=16ccn:v	!	!	!	!	!	!	!	!	!	!
.	16cc#\JJ	16ee\JJ	.	.	.	.	.	.	.	.	.
!	!	!	!	!	!	!LO:SIC:s=8F#:v	!	!	!	!	!
8F#\	16b/LL	16dd\LL	.	8F#\	-fe-	8G/	-fe-	8b\	-fe-	.	.
.	16a/	16ccn\	.	.	.	.	.	.	.	.	.
8D\J	16g/	16b\	.	8D\	-rum	8F#/	-rum	8a\	-rum	.	.
.	16f#/JJ	16a\JJ	.	.	.	.	.	.	.	.	.
!LO:TX:a:t=P:problem=mixed beam	!	!	!	!	!	!LO:TX:a:t=P:problem=w źródle nieprawidłowe podpisanie tekstu (ilośc sylab zbyt duża), do tego "genite" zamiast "genuite"	!	!	!	!	!
8G\L	8g/L	8b\L	.	8G\	ge-	4G/	ge-	4b\	an-	.	.
8GG/	8b/J	8gg\J	.	8GG/	-nu-	.	.	.	.	.	.
!	!	!	!	!	!	!	!	!LO:SIC:s=8gg:v	!	!	!
8BB/	4b\	4gg\	.	8BB/L	-i-	8d\	-nite	8ff#\	-te	.	.
8GG/J	.	.	.	8GG/J	.	8d\	lu-	8ff#\	lu-	.	.
!	!	!	!	!	!	!LO:LB:g=original	!	!	!	!	!
=32	=32	=32	=32	=32	=32	=32	=32	=32	=32	=32	=32
!	!	!	!	!	!	!LO:TX:a:t=P:problem=mixed beam	!	!	!	!	!
8D\L	16ff#\LL	16aa\LL	.	4D\	-te	8f#\L	-ci-	8aa\L	-ci-	.	.
.	16ee\	16gg\	.	.	.	.	.	.	.	.	.
!	!	!	!	!	!	!	!	!LO:SIC:s=8ccn:v	!	!	!
8D\	16dd\	16ff#\	.	.	.	8A/J	.	8cc#\J	.	.	.
!	!LO:SIC:s=16ccn:v	!	!	!	!	!	!	!	!	!	!
.	16cc#\JJ	16ee\JJ	.	.	.	.	.	.	.	.	.
!	!	!	!	!LO:TX:a:t=P:problem= w źródle niejednoznacznie podłożony tekst	!	!LO:SIC:s=8F#:v	!	!	!	!	!
8F#\	16b/LL	16dd\LL	.	8F#\	ge-	8G/	-fe-	8b\	-fe-	.	.
.	16a/	16ccn\	.	.	.	.	.	.	.	.	.
8F#\J	16g/	16b\	.	8F#\	-nu-	8F#/	-rum	8a\	-rum	.	.
.	16f#/JJ	16a\JJ	.	.	.	.	.	.	.	.	.
!	!	!	!	!	!	!	!	!LO:LB:g=original	!	!	!
!LO:TX:a:t=P:problem=mixed beam	!	!	!	!LO:TX:a:t=P:problem=mixed beam	!	!	!	!	!	!	!
8G\L	8g/L	16b\LL	.	8G\L	-i-	8G/L	ge-	8b\L	ge-	.	.
.	.	16dd\	.	.	.	.	.	.	.	.	.
!LO:SIC:s=8Cn:v	!	!	!	!LO:SIC:s=8Cn:v	!	!	!	!LO:SIC:s=8ccn:v	!	!	!
8BB/	8a/	16ee\	.	8C#/J	.	8E/J	.	16cc#\L	.	.	.
.	.	16cc\JJ	.	.	.	.	.	16a\JJ	.	.	.
!LO:SIC:s=8D:v	!	!	!	!	!	!	!	!	!	!	!
8C#/	8g/	8b/L	.	8D\	.	8D/	-nu-	8g\	-nu-	.	.
8D/J	8f#/J	8a/J	.	8d\	.	8F#/	-i-	8a\	-i-	.	.
=33	=33	=33	=33	=33	=33	=33	=33	=33	=33	=33	=33
!LO:TX:a:t=P:problem=mixed beam	!	!	!	!	!	!	!	!	!	!	!
8G\L	8g/L	8g/L	.	4G\	-te	4D/	-te	4g\	-te	.	.
8GG/	8b/	8dd/J	.	.	.	.	.	.	.	.	.
8GG/	8b/	16dd/LL	.	4r	.	4r	.	4r	.	.	.
.	.	16b/	.	.	.	.	.	.	.	.	.
8GG/J	8b/J	16a/	.	.	.	.	.	.	.	.	.
.	.	16g/JJ	.	.	.	.	.	.	.	.	.
*tremolo	*	*	*	*	*	*	*	*	*	*	*
!	!LO:SIC:s=4ccn:v	!	!	!	!	!	!	!	!	!	!
8GG/L	4cc#\	4ee\	.	2r	.	2r	.	2r	.	.	.
8GG/	.	.	.	.	.	.	.	.	.	.	.
8GG/	4a\	4ff#X\	.	.	.	.	.	.	.	.	.
8GG/J	.	.	.	.	.	.	.	.	.	.	.
*Xtremolo	*	*	*	*	*	*	*	*	*	*	*
=34	=34	=34	=34	=34	=34	=34	=34	=34	=34	=34	=34
8BB/L	8b/L	16gg\LL	.	00r	.	0r	.	00r	.	00r	00r
.	.	16dd\	.	.	.	.	.	.	.	.	.
!LO:SIC:s=8Cn:v	!	!	!	!	!	!	!	!	!	!	!
8C#/	8a/	16ee\	.	.	.	.	.	.	.	.	.
.	.	16ccn\JJ	.	.	.	.	.	.	.	.	.
8D/	8g/	8b/L	.	.	.	.	.	.	.	.	.
8D/J	8f#/J	8a/J	.	.	.	.	.	.	.	.	.
*tremolo	*	*	*	*	*	*	*	*	*	*	*
8GG/L	8g/L	8g/L	.	.	.	.	.	.	.	.	.
8GG/	8b/	16b/L	.	.	.	.	.	.	.	.	.
.	.	16dd/JJ	.	.	.	.	.	.	.	.	.
8GG/	8b/	16dd/LL	.	.	.	.	.	.	.	.	.
.	.	16b/	.	.	.	.	.	.	.	.	.
8GG/J	8b/J	16a/	.	.	.	.	.	.	.	.	.
.	.	16g/JJ	.	.	.	.	.	.	.	.	.
!	!	!LO:LB:g=original	!	!	!	!	!	!	!	!	!
=35	=35	=35	=35	=35	=35	=35	=35	=35	=35	=35	=35
!	!LO:SIC:s=4ccn:v	!	!	!	!	!	!	!	!	!	!
8GG/L	4cc#\	4ee\	.	.	.	.	.	.	.	.	.
8GG/	.	.	.	.	.	.	.	.	.	.	.
8GG/	4a/	4ff#\	.	.	.	.	.	.	.	.	.
8GG/J	.	.	.	.	.	.	.	.	.	.	.
*Xtremolo	*	*	*	*	*	*	*	*	*	*	*
8BB/L	8b/L	16gg\LL	.	.	.	.	.	.	.	.	.
.	.	16dd\	.	.	.	.	.	.	.	.	.
!LO:SIC:s=8Cn:v	!	!	!	!	!	!	!	!	!	!	!
8C#/	8a/	16ee\	.	.	.	.	.	.	.	.	.
.	.	16ccn\JJ	.	.	.	.	.	.	.	.	.
8D/	8g/	8b/L	.	.	.	.	.	.	.	.	.
8DD/J	8f#/J	8a/J	.	.	.	.	.	.	.	.	.
=36	=36	=36	=36	=36	=36	=36	=36	=36	=36	=36	=36
*tremolo	*	*	*	*	*	*	*	*	*	*	*
!	!	!LO:TX:a:t=P:problem=mixed beam	!	!	!	!	!	!	!	!	!
!	!	!	!LO:DY:b	!	!	!	!	!	!	!	!
8GG/L	8g/L	8g/L	p	.	.	4d\	Ju-	.	.	.	.
8GG/	8b/	8dd\	.	.	.	.	.	.	.	.	.
8GG/	8b/	8dd\	.	.	.	16cn\LL	-ra-	.	.	.	.
.	.	.	.	.	.	16B\JJ	.	.	.	.	.
8GG/J	8b/J	8dd\J	.	.	.	16A\LL	-vit	.	.	.	.
.	.	.	.	.	.	16G\JJ	.	.	.	.	.
!	!LO:SIC:s=8.ccn:v	!	!	!	!	!	!	!	!	!	!
8GG/L	8.cc#\L	8.ee\L	.	.	.	8.e\	do-	.	.	.	.
8GG/	.	.	.	.	.	.	.	.	.	.	.
.	16a\Jk	16ff#\Jk	.	.	.	16f#\	-mi-	.	.	.	.
.	8qqa/	.	.	.	.	.	.	.	.	.	.
8GG/	4b\	4gg\	.	.	.	8g\	-nuſ	.	.	.	.
8GG/J	.	.	.	.	.	8g\	et	.	.	.	.
*Xtremolo	*	*	*	*	*	*	*	*	*	*	*
=37	=37	=37	=37	=37	=37	=37	=37	=37	=37	=37	=37
8D\L	8a/L	16gg\LL	.	.	.	16g\LL	non	.	.	.	.
.	.	16ff#\	.	.	.	16f#\JJ	.	.	.	.	.
8D\	8a/	16aa\	.	.	.	16a\	pe-	.	.	.	.
.	.	16gg\JJ	.	.	.	16g\	-ni-	.	.	.	.
8F#\	8a/	16ff#\LL	.	.	.	16f#\LL	-te-	.	.	.	.
.	.	16ee\	.	.	.	16e\JJ	.	.	.	.	.
8D\J	8a/J	16dd\	.	.	.	16d\LL	-bit	.	.	.	.
.	.	16ccn\JJ	.	.	.	16c#\JJ	.	.	.	.	.
!LO:TX:a:t=P:problem=mixed beam	!	!	!	!	!	!	!	!	!	!	!
8G\L	8a/L	8cc\L	.	.	.	8cn\	e-	.	.	.	.
8GG/	8g/J	8b\J	.	.	.	8B\	-um	.	.	.	.
8BB/	16b/LL	16dd\LL	.	.	.	8r	.	.	.	.	.
.	16a/J	16cc\J	.	.	.	.	.	.	.	.	.
8D#X/J	8g/J	8b\J	.	.	.	8B\	tu	.	.	.	.
!	!LO:LB:g=original	!	!	!	!	!	!	!	!	!	!
=38	=38	=38	=38	=38	=38	=38	=38	=38	=38	=38	=38
8BB/L	8ee\L	8ee\L	.	00r	.	8e\L	es	00r	.	00r	00r
8BB/	8ee\	16ff#\L	.	.	.	8g\J	.	.	.	.	.
.	.	16gg\JJ	.	.	.	.	.	.	.	.	.
8C#/	8dd#X\	8ff#\L	.	.	.	8f#\L	sa-	.	.	.	.
8D#X/J	8dd#\J	16gg\L	.	.	.	8a\J	.	.	.	.	.
.	.	16aa\JJ	.	.	.	.	.	.	.	.	.
.	.	8qqaa/	.	.	.	.	.	.	.	.	.
!LO:TX:a:t=P:problem=mixed beam	!	!	!	!	!	!	!	!	!	!	!
8E\L	8ee\L	4gg\	.	.	.	4g\	-cer-	.	.	.	.
8AA#X/	8ee\	.	.	.	.	.	.	.	.	.	.
8BB/	8dd#\	8ff#\L	.	.	.	8f#\	-dos	.	.	.	.
8BB/J	8b\J	8dd#X\J	.	.	.	8B/	in	.	.	.	.
!LO:LB:g=original	!	!	!	!	!	!LO:LB:g=original	!	!	!	!	!
=39	=39	=39	=39	=39	=39	=39	=39	=39	=39	=39	=39
!LO:TX:a:t=P:problem=mixed beam	!	!	!	!	!	!	!	!	!	!	!
8BB/L	8ee\L	8ee\L	.	.	.	8e\L	ae-	.	.	.	.
8BB/	8ee\	16ff#\L	.	.	.	8g\J	.	.	.	.	.
.	.	16gg\JJ	.	.	.	.	.	.	.	.	.
8B\	8dd#X\	8ff#\L	.	.	.	8f#\L	.	.	.	.	.
8D#X/J	8dd#\J	16gg\L	.	.	.	8a\J	.	.	.	.	.
.	.	16aa\JJ	.	.	.	.	.	.	.	.	.
.	.	8qqaa/	.	.	.	.	.	.	.	.	.
!LO:TX:a:t=P:problem=mixed beam	!	!	!	!	!	!	!	!	!	!	!
8E\L	8ee\L	4gg\	.	.	.	4g\	-ter-	.	.	.	.
8AA#X/	8ee\	.	.	.	.	.	.	.	.	.	.
8BB/	8dd#\	8ff#\L	.	.	.	8f#\	-num	.	.	.	.
8BB/J	8g\J	8b\J	.	.	.	8B\	se-	.	.	.	.
=40	=40	=40	=40	=40	=40	=40	=40	=40	=40	=40	=40
8BB/L	4a/	4cc#\	.	.	.	4cn\	-cun-	.	.	.	.
8BB/	.	.	.	.	.	.	.	.	.	.	.
8AAn/	4f#/	4dd#X\	.	.	.	4d#X\	-dum	.	.	.	.
8AA/J	.	.	.	.	.	.	.	.	.	.	.
8GG/L	16g/LL	8ee\L	.	.	.	16e\LL	or-	.	.	.	.
.	16b/	.	.	.	.	16g\JJ	.	.	.	.	.
8AA/	16f#/	16gg\L	.	.	.	16d#\LL	-di-	.	.	.	.
.	16a/JJ	16ff#\JJ	.	.	.	16f#\JJ	.	.	.	.	.
8GG/	8g/L	8.ee\L	.	.	.	8e\	-nem	.	.	.	.
8AA/J	8f#/J	.	.	.	.	8A/	mel-	.	.	.	.
.	.	16a\Jk	.	.	.	.	.	.	.	.	.
=41	=41	=41	=41	=41	=41	=41	=41	=41	=41	=41	=41
*tremolo	*	*	*	*	*	*	*	*	*	*	*
!	!	!	!	!	!	!LO:SIC:s=-chi-:v	!	!	!	!	!
8BB/L	4e/	4g/	.	.	.	4G/	-hi-	.	.	.	.
8BB/	.	.	.	.	.	.	.	.	.	.	.
8BB/	4d#X/	4f#/	.	.	.	4F#/	-se-	.	.	.	.
8BB/J	.	.	.	.	.	.	.	.	.	.	.
!	!	!LO:LB:g=original	!	!	!	!	!	!	!	!	!
!	!LO:TX:a:t=P:problem=mixed beam	!LO:TX:a:t=P:problem=mixed beam	!	!	!	!	!	!	!	!	!
8E\L	8e/L	8e/L	.	.	.	4E/	-dech	.	.	.	.
8E\	8gg\	8bb\J	.	.	.	.	.	.	.	.	.
8E\	8gg\	16aa\LL	.	.	.	4r	.	.	.	.	.
.	.	16gg\	.	.	.	.	.	.	.	.	.
8E\J	8gg\J	16ff#\	.	.	.	.	.	.	.	.	.
.	.	16ee\JJ	.	.	.	.	.	.	.	.	.
*Xtremolo	*	*	*	*	*	*	*	*	*	*	*
=42	=42	=42	=42	=42	=42	=42	=42	=42	=42	=42	=42
8F#\L	8aa\L	16cccn\LL	.	00r	.	0r	.	00r	.	00r	00r
.	.	16aa\J	.	.	.	.	.	.	.	.	.
8F#\	8aa\	8aa\J	.	.	.	.	.	.	.	.	.
8D\	8ff#\	16dd\LL	.	.	.	.	.	.	.	.	.
.	.	16ff#\	.	.	.	.	.	.	.	.	.
8D\J	8ff#\J	16aa\	.	.	.	.	.	.	.	.	.
.	.	16cccn\JJ	.	.	.	.	.	.	.	.	.
8E\L	8gg\L	16bb\LL	.	.	.	.	.	.	.	.	.
.	.	16gg\J	.	.	.	.	.	.	.	.	.
8E\	8gg\	8gg\J	.	.	.	.	.	.	.	.	.
8C#\	8ee\	16cc#\LL	.	.	.	.	.	.	.	.	.
.	.	16ee\	.	.	.	.	.	.	.	.	.
8C#\J	8ee\J	16gg\	.	.	.	.	.	.	.	.	.
.	.	16bb\JJ	.	.	.	.	.	.	.	.	.
=43	=43	=43	=43	=43	=43	=43	=43	=43	=43	=43	=43
*	*Xtuplet	*	*	*	*	*	*	*	*	*	*
8D#X/L	8ff#\L	16aa\LL	.	.	.	.	.	.	.	.	.
.	.	16ff#\J	.	.	.	.	.	.	.	.	.
8D#/	8ff#\	8ff#\J	.	.	.	.	.	.	.	.	.
8BB/	8dd#X\	16b\LL	.	.	.	.	.	.	.	.	.
.	.	16dd#X\	.	.	.	.	.	.	.	.	.
8D#/J	8dd#\J	16ff#\	.	.	.	.	.	.	.	.	.
.	.	16aa\JJ	.	.	.	.	.	.	.	.	.
*tremolo	*	*	*	*	*	*	*	*	*	*	*
!	!	!LO:TUP:a:problem=klamra łukowa	!	!	!	!	!	!	!	!	!
8E\L	24b/LL	24gg\LL	.	.	.	.	.	.	.	.	.
.	24a/	24ff#\	.	.	.	.	.	.	.	.	.
.	24g/JJ	24ee\J	.	.	.	.	.	.	.	.	.
8E\	16g/LL	8ee\J	.	.	.	.	.	.	.	.	.
.	16g/JJ	.	.	.	.	.	.	.	.	.	.
!	!LO:TX:a:t=P:problem=mixed beam	!	!	!	!	!	!	!	!	!	!
8E\	8g/L	16dd#\LL	.	.	.	.	.	.	.	.	.
.	.	16ff#\	.	.	.	.	.	.	.	.	.
8E\J	8aa\J	16aa\	.	.	.	.	.	.	.	.	.
!	!	!LO:SIC:s=16cccn:v	!	!	!	!	!	!	!	!	!
.	.	16ccc#\JJ	.	.	.	.	.	.	.	.	.
=44	=44	=44	=44	=44	=44	=44	=44	=44	=44	=44	=44
.	8qqaa/	.	.	.	.	.	.	.	.	.	.
8E\L	4.gg\	4.bb\	.	.	.	1r	.	.	.	.	.
8E\	.	.	.	.	.	.	.	.	.	.	.
8E\	.	.	.	.	.	.	.	.	.	.	.
8E\J	8ff#\	8aa\	.	.	.	.	.	.	.	.	.
!	!	!LO:TUP:a:problem=klamra łukowa	!	!	!	!	!	!	!	!	!
8E\L	24b/LL	24gg\LL	.	.	.	.	.	.	.	.	.
.	24a/	24ff#\	.	.	.	.	.	.	.	.	.
.	24g/J	24ee\J	.	.	.	.	.	.	.	.	.
8E\	8g/J	8ee\J	.	.	.	.	.	.	.	.	.
8E\	16g\LL	16b\LL	.	.	.	.	.	.	.	.	.
.	16b\	16dd#X\	.	.	.	.	.	.	.	.	.
8E\J	16dd#X\	16ff#\	.	.	.	.	.	.	.	.	.
.	16ff#\JJ	16aa\JJ	.	.	.	.	.	.	.	.	.
*	*tuplet	*	*	*	*	*	*	*	*	*	*
=45	=45	=45	=45	=45	=45	=45	=45	=45	=45	=45	=45
.	8qqff#/	8qqaa/	.	.	.	.	.	.	.	.	.
!	!	!	!	!	!	!LO:TX:a:t=P:problem=pominięty fragment	!	!	!	!	!
8BB/L	4.ee\	4.gg\	.	.	.	1ryy	.	.	.	.	.
8BB/	.	.	.	.	.	.	.	.	.	.	.
8BB/	.	.	.	.	.	.	.	.	.	.	.
!	!LO:SIC:s=8dd#:v:v	!	!	!	!	!	!	!	!	!	!
8BB/J	8dd\	8ff#\	.	.	.	.	.	.	.	.	.
*Xtremolo	*	*	*	*	*	*	*	*	*	*	*
!LO:TX:a:t=P:problem=mixed beam	!	!	!	!	!	!	!	!	!	!	!
8E\L	8ee\L	16gg\LL	.	.	.	.	.	.	.	.	.
.	.	16ee\	.	.	.	.	.	.	.	.	.
8cn\	8ff#\	16aa\	.	.	.	.	.	.	.	.	.
.	.	16ff#\JJ	.	.	.	.	.	.	.	.	.
8B\	8ee\	8gg\L	.	.	.	.	.	.	.	.	.
8BB/J	8dd#X\J	8ff#\J	.	.	.	.	.	.	.	.	.
!	!LO:LB:g=original	!	!	!	!	!	!	!	!	!	!
=46	=46	=46	=46	=46	=46	=46	=46	=46	=46	=46	=46
8GG/L	8.ee\L	8.ee\L	.	8.G\	Do-	8e\	Do-	8.gg\	Do-	00r	00r
!LO:SIC:s=8Cn:v	!	!	!	!	!	!	!	!	!	!	!
8C#/	.	.	.	.	.	8e\	-mi-	.	.	.	.
.	16ee\Jk	16gg\Jk	.	16GG/	-mi-	.	.	16gg\	-mi-	.	.
!	!	!	!	!LO:SIC:s=8Cn:v	!	!	!	!	!	!	!
8D/	16dd\LL	16ff#\LL	.	8C#/	-nus	16d\LL	-nus	16ff#\LL	-nus	.	.
!	!LO:SIC:s=16ccn:v	!	!	!	!	!	!	!	!	!	!
.	16cc#\	16ee\	.	.	.	16cn\JJ	.	16ee\JJ	.	.	.
!	!	!	!	!LO:SIC:s=a:v	!	!LO:SIC:s=a:v	!	!LO:SIC:s=a:v	!	!	!
8D/J	16b\	16dd\	.	8D/	ad	16B\LL	ad	16dd\LL	ad	.	.
!	!	!	!	!	!	!	!	!LO:SIC:s=16ccn:v	!	!	!
.	16a\JJ	16ccn\JJ	.	.	.	16A\JJ	.	16cc#\JJ	.	.	.
8D\L	8g/L	8b\L	.	8D/	dex-	8G/	dex-	8b\	de-	.	.
8D\	8b/J	8dd\J	.	8D/	-tris	8B\	-tris	8dd\	-xtris	.	.
!	!	!	!	!	!	!	!	!LO:SIC:s=4ccn:v	!	!	!
.	8qqb/	8qqdd/	.	.	.	8qqB/	.	8qqdd/	.	.	.
8F#\	4a/	4cc\	.	8F#\L	tu-	4A\	tu-	4cc#\	tu-	.	.
!	!	!	!	!LO:SIC:s=8Dn:v	!	!	!	!	!	!	!
8D\J	.	.	.	8E\J	.	.	.	.	.	.	.
!	!	!LO:LB:g=original	!	!	!	!	!	!	!	!	!
=47	=47	=47	=47	=47	=47	=47	=47	=47	=47	=47	=47
!LO:TX:a:t=P:problem=mixed beam	!	!	!	!	!	!	!	!	!	!	!
16GG/LL	16g/LL	16b/LL	.	4GG/	-is	4G/	-is	4b\	-is	.	.
16G\	16g/	16g/	.	.	.	.	.	.	.	.	.
16D\	16d/	16d/	.	.	.	.	.	.	.	.	.
16BB\JJ	16B/JJ	16B/JJ	.	.	.	.	.	.	.	.	.
!LO:TX:a:t=P:problem=mixed beam	!LO:TX:a:t=P:problem=mixed beam	!LO:TX:a:t=P:problem=mixed beam	!	!	!	!	!	!	!	!	!
8GG/L	8G/L	8G/L	.	8r	.	8r	.	8r	.	.	.
!	!	!	!	!LO:LB:g=original	!	!	!	!	!	!	!
8G\J	8b\	8dd\J	.	8G\	Con-	8B\	Con-	8dd\	Con-	.	.
*tremolo	*	*	*	*	*	*	*	*	*	*	*
!LO:SIC:s=8Cn:v	!LO:SIC:s=8ccn:v	!LO:TX:a:t=P:problem=mixed beam	!	!LO:SIC:s=4Cn:v	!	!	!	!	!	!	!
8C#/L	8cc#\	16ee\LL	.	4C#/	-fre-	4cn\	-fre-	4ee\	-fre-	.	.
!	!	!LO:SIC:s=16cn:v	!	!	!	!	!	!	!	!	!
.	.	16c#/	.	.	.	.	.	.	.	.	.
!LO:SIC:s=8Cn:v	!LO:SIC:s=8ccn:v	!	!	!	!	!	!	!	!	!	!
8C#/	8cc#\J	16e/	.	.	.	.	.	.	.	.	.
.	.	16g/JJ	.	.	.	.	.	.	.	.	.
!LO:SIC:s=8Cn:v	!	!LO:SIC:s=16ccn:v	!	!LO:SIC:s=8Cn:v	!	!	!	!	!	!	!
8C#/	8ee\L	16cc#\LL	.	8C#/	-git	8c\	-git	8ee\	-git	.	.
.	.	16ee\	.	.	.	.	.	.	.	.	.
!LO:SIC:s=8Cn:v	!	!	!	!LO:SIC:s=8Cn:v	!	!	!	!	!	!	!
8C#/J	8ee\J	16gg\	.	8C#/	in	8c\	in	8ee\	in	.	.
.	.	16bb\JJ	.	.	.	.	.	.	.	.	.
!LO:LB:g=original	!	!	!	!	!	!	!	!	!	!	!
=48	=48	=48	=48	=48	=48	=48	=48	=48	=48	=48	=48
!LO:SIC:s=8Cn:v	!	!	!	!LO:SIC:s=4Cn:v	!	!LO:SIC:s=4cn:v	!	!	!	!	!
8C#/L	8ee\L	4cccn\	.	4C#/	di-	4c#\	di-	4ee\	di-	.	.
!LO:SIC:s=8Cn:v	!	!	!	!	!	!	!	!	!	!	!
8C#/	8ee\	.	.	.	.	.	.	.	.	.	.
!	!	!	!	!LO:SIC:s=-e:v	!	!LO:SIC:s=8cn:v	!	!	!	!	!
!LO:SIC:s=8Cn:v	!	!	!	!LO:SIC:s=8Cn:v	!	!LO:SIC:s=-e:v	!	!LO:SIC:s=-e:v	!	!	!
8C#/	8ee\	4ee\	.	8C#/	-ae	8c#\	-ae	8ee\	-ae	.	.
!LO:SIC:s=8Cn:v	!	!	!	!LO:SIC:s=8Cn:v	!	!LO:SIC:s=8cn:v	!	!	!	!	!
8C#/J	8ee\J	.	.	8C#/	i-	8c#\	in	8ee\	in	.	.
!	!	!	!	!	!	!LO:	!	!	!	!	!
!	!	!LO:TX:a:t=P:problem=mixed beam	!	!LO:SIC:s=-ae:v	!	!	!	!	!	!	!
8BB/L	8dd\L	16dd\LL	.	8BB/	-re	8B\	di-	8dd\	di-	.	.
.	.	16G/	.	.	.	.	.	.	.	.	.
!	!	!	!	!	!	!LO:SIC:s=-e:v	!	!LO:SIC:s=-e:v	!	!	!
8BB/	8dd\	16B/	.	8BB/	i-	8B\	-ae	8dd\	-ae	.	.
.	.	16d/JJ	.	.	.	.	.	.	.	.	.
8BB/	8dd\	16g/LL	.	8BB/	-rae	8B\	i-	8dd\	i-	.	.
.	.	16b/	.	.	.	.	.	.	.	.	.
!	!	!	!	!	!	!	!	!LO:SIC:s=-ae:v	!	!	!
8BB/J	8dd\J	16dd/	.	8BB/	.	8B\	-rae	8dd\	-re	.	.
.	.	16gg/JJ	.	.	.	.	.	.	.	.	.
=49	=49	=49	=49	=49	=49	=49	=49	=49	=49	=49	=49
!	!	!	!	!LO:SIC:s=4A:v	!	!LO:SIC:s=4A:v	!	!	!	!	!
8AA/L	8dd\L	4ddd\	.	4B\	ſu-	4B\	ſu-	4dd\	ſu-	.	.
8AA/	8dd\	.	.	.	.	.	.	.	.	.	.
!	!	!	!	!LO:SIC:s=4A:v	!	!LO:SIC:s=4A:v	!	!	!	!	!
8AA/	8dd\	4dd\	.	4B\	-ae	4B\	-ae	4dd\	-ae	.	.
8AA/J	8dd\J	.	.	.	.	.	.	.	.	.	.
*Xtremolo	*	*	*	*	*	*	*	*	*	*	*
!	!	!LO:TX:a:t=P:problem=mixed beam	!	!	!	!	!	!LO:SIC:s=8ccn:v	!	!	!
8D\L	8f#/L	16ccn\LL	.	8d\	Re-	8A\	re-	8cc#\	i-	.	.
.	.	16d/	.	.	.	.	.	.	.	.	.
!	!	!	!	!	!	!	!	!LO:SIC:s=8ccn:v	!	!	!
!	!	!	!	!	!	!	!	!LO:SIC:s=-ae:v	!	!	!
8D\	8f#/	16f#/	.	8D\	-ges	8A\	-ges	8cc#\	-re	.	.
.	.	16a/JJ	.	.	.	.	.	.	.	.	.
!	!	!	!	!LO:SIC:s=8F#:v	!	!	!	!LO:SIC:s=8ccn:v	!	!	!
8F#\	8a/	8cc\L	.	8E\	i-	8A\	ſu-	8cc#\	ſu-	.	.
!	!	!	!	!LO:SIC:s=8G:v	!	!	!	!	!	!	!
8G\J	8g/J	8b\J	.	8F#\	-rae	8G\	-ae	8b\	-ae	.	.
=50	=50	=50	=50	=50	=50	=50	=50	=50	=50	=50	=50
!LO:TX:a:t=P:problem=mixed beam	!	!	!	!	!	!	!	!	!	!	!
.	8qqg/	.	.	.	.	.	.	.	.	.	.
8d\L	4f#/	4a/	.	8d\	ſu-	8G/	re-	8a\	Re-	00r	00r
8D/	.	.	.	8D/	-ae	8F#/	-ges	8a\	-ges	.	.
8BB/	8r	8r	.	8r	.	8r	.	8r	.	.	.
!	!	!	!	!	!	!	!	!LO:LB:g=original	!	!	!
8GG/J	8b\	8dd\	.	8F#\	in	8B\	in	8dd\	In	.	.
!LO:SIC:s=8Cn:v	!LO:SIC:s=4cn:v	!	!	!LO:SIC:s=8Cn:v	!	!	!	!	!	!	!
8C#/L	4cc#\	4ee\	.	8C#/L	di-	4cn\	di-	4ee\	di-	.	.
8AA/	.	.	.	8AA/J	.	.	.	.	.	.	.
!	!	!	!	!LO:SIC:s=-e:v	!	!LO:SIC:s=e:v	!	!	!	!	!
8D/	4a\	4ff#\	.	8D/L	-ae	4A\	-ae	4ff#\	-e	.	.
!LO:SIC:s=8Cn:v	!	!	!	!LO:SIC:s=8Cn:v	!	!	!	!	!	!	!
8C#/J	.	.	.	8C#/J	.	.	.	.	.	.	.
=51	=51	=51	=51	=51	=51	=51	=51	=51	=51	=51	=51
8BB/L	16b\LL	16gg\LL	.	8BB/	i-	8B\	i-	8gg\	i-	.	.
.	16dd\	16bb\	.	.	.	.	.	.	.	.	.
!	!	!	!	!	!	!	!	!LO:SIC:s=16ccn:v	!	!	!
!	!	!LO:SIC:s=16ccn:v	!	!LO:SIC:s=-ae:v	!	!LO:SIC:s=-ae:v	!	!LO:SIC:s=-ae:v	!	!	!
8AA/	16a\	16cc#X\	.	8AA/	-re	16A\LL	-re	16cc#\LL	-re	.	.
!	!LO:SIC:s=16ccn:v	!	!	!	!	!LO:SIC:s=16cn:v	!	!	!	!	!
.	16cc#\JJ	16ee\JJ	.	.	.	16c#\JJ	.	16ee\JJ	.	.	.
!	!	!LO:TX:a:t=P:problem=mixed beam	!	!	!	!	!	!	!	!	!
8BB/	8b\L	8dd\L	.	8BB/	ſu-	8B\	ſu-	8dd\	ſu-	.	.
!	!	!	!	!LO:SIC:s=-ae:v	!	!	!	!	!	!	!
!LO:SIC:s=8Cn:v	!	!	!	!LO:SIC:s=8Cn:v	!	!LO:SIC:s=-ae:v	!	!	!	!	!
8C#/J	8g\J	8g/J	.	8C#/	-e	8G/	-e	8g\	-ae	.	.
8BB/L	4g/	4d/	.	8BB/L	Re-	4G/	re-	4g\	re-	.	.
!LO:SIC:s=8Cn:v	!	!	!	!LO:SIC:s=8Cn:v	!	!	!	!	!	!	!
8C#/	.	.	.	8C#/J	.	.	.	.	.	.	.
8D/	4f#/	4a/	.	4D\	-ges	4F#/	-ges	4a\	-ges	.	.
8DD/J	.	.	.	.	.	.	.	.	.	.	.
!	!	!	!	!LO:LB:g=original	!	!	!	!	!	!	!
=52	=52	=52	=52	=52	=52	=52	=52	=52	=52	=52	=52
!LO:SIC:s=8Cn:v	!LO:SIC:s=4ccn:v	!	!	!LO:SIC:s=8Cn:v	!	!LO:SIC:s=4cn:v	!	!	!	!	!
8C#/L	4cc#\	4ee\	.	8C#/L	In	4c#\	in	4ee\	in	.	.
8AA/	.	.	.	8AA/J	.	.	.	.	.	.	.
8D/	4a\	4ff#\	.	8D/	di-	8A\	di-	8ff#\	di-	.	.
!LO:SIC:s=8Cn:v	!	!	!	!LO:SIC:s=8Cn:v	!	!LO:SIC:s=-e:v	!	!	!	!	!
8C#/J	.	.	.	8C#/	-e	8A\	-ae	8ff#\	-e	.	.
!	!	!LO:TX:a:t=P:problem=mixed beam	!	!	!	!	!	!	!	!	!
8BB/L	16b\LL	16gg\LL	.	8BB/	i-	8B\	i-	8gg\	i-	.	.
.	16dd\	16bb\	.	.	.	.	.	.	.	.	.
!	!	!	!	!	!	!	!	!LO:SIC:s=16ccn:v	!	!	!
!	!	!LO:SIC:s=16ccn:v	!	!LO:SIC:s=-ae:v	!	!LO:SIC:s=-ae:v	!	!LO:SIC:s=-ae:v	!	!	!
8AA/	16a\	16cc#/	.	8AA/	-re	16A\LL	-re	16cc#\LL	-re	.	.
!	!LO:SIC:s=16ccn:v	!	!	!	!	!LO:SIC:s=16cn:v	!	!	!	!	!
.	16cc#\JJ	16ee/JJ	.	.	.	16c#\JJ	.	16ee\JJ	.	.	.
!	!	!LO:TX:a:t=P:problem=mixed beam	!	!	!	!	!	!	!	!	!
8BB/	8b\L	8dd\L	.	8BB/	ſu-	8B\	ſu-	8dd\	ſu-	.	.
!	!	!	!	!LO:SIC:s=-ae:v	!	!	!	!	!	!	!
!LO:SIC:s=8Cn:v	!	!	!	!LO:SIC:s=8Cn:v	!	!LO:SIC:s=-ae:v	!	!	!	!	!
8C#/J	8g\J	8g/J	.	8C#/	-e	8G/	-e	8g\	-ae	.	.
=53	=53	=53	=53	=53	=53	=53	=53	=53	=53	=53	=53
*tremolo	*	*	*	*	*	*	*	*	*	*	*
8D/L	4g/	4d/	.	4D/	Re-	4G/	Re-	4g\	Re-	.	.
8D/	.	.	.	.	.	.	.	.	.	.	.
8D/	4f#/	4a/	.	4D/	.	4F#/	.	4a\	.	.	.
8D/J	.	.	.	.	.	.	.	.	.	.	.
8GG/L	8b\L	8g/L	.	4GG/	-ges	4G/	-ges	4g\	-ges	.	.
8GG/	8b\	8dd/J	.	.	.	.	.	.	.	.	.
8GG/	8b\	16dd/LL	.	4r	.	4r	.	4r	.	.	.
.	.	16b/	.	.	.	.	.	.	.	.	.
8GG/J	8b\J	16a/	.	.	.	.	.	.	.	.	.
.	.	16g/JJ	.	.	.	.	.	.	.	.	.
!	!	!LO:TX:a:t=P:problem=w źródle skreślony takt; pomyłka skryptora	!	!	!	!	!	!	!	!	!
!	!LO:LB:g=original	!LO:LB:g=original	!	!	!	!	!	!	!	!	!
=54	=54	=54	=54	=54	=54	=54	=54	=54	=54	=54	=54
!	!LO:SIC:s=16ccn:v	!	!	!	!	!	!	!	!	!	!
8GG/L	16cc#\LL	16ee\LL	.	0r	.	00r	.	00r	.	00r	00r
.	16a\	16ccn\	.	.	.	.	.	.	.	.	.
8GG/	16a\	16cc\	.	.	.	.	.	.	.	.	.
!	!LO:SIC:s=16ccn:v	!	!	!	!	!	!	!	!	!	!
.	16cc#\JJ	16ee\JJ	.	.	.	.	.	.	.	.	.
.	.	8qqee/	.	.	.	.	.	.	.	.	.
8GG/	8b\L	4dd\	.	.	.	.	.	.	.	.	.
8GG/J	8b\J	.	.	.	.	.	.	.	.	.	.
*Xtremolo	*tremolo	*	*	*	*	*	*	*	*	*	*
8D\L	8a/L	16cc\LL	.	.	.	.	.	.	.	.	.
.	.	16ff#X\	.	.	.	.	.	.	.	.	.
8D\	8a/	16aa\	.	.	.	.	.	.	.	.	.
.	.	16gg\JJ	.	.	.	.	.	.	.	.	.
8F#\	8a/	16ff#\LL	.	.	.	.	.	.	.	.	.
.	.	16ee\	.	.	.	.	.	.	.	.	.
8D\J	8a/J	16dd\	.	.	.	.	.	.	.	.	.
.	.	16cc\JJ	.	.	.	.	.	.	.	.	.
*	*Xtremolo	*	*	*	*	*	*	*	*	*	*
=55	=55	=55	=55	=55	=55	=55	=55	=55	=55	=55	=55
8G\L	16g/LL	16b/LL	.	.	.	.	.	.	.	.	.
.	16B/	16g/	.	.	.	.	.	.	.	.	.
8D\J	16A/	16f#X/	.	.	.	.	.	.	.	.	.
!	!LO:SIC:s=16cn:v	!	!	!	!	!	!	!	!	!	!
.	16c#/JJ	16a/JJ	.	.	.	.	.	.	.	.	.
!	!LO:SIC:s=8qqcn:v:t=przednutka	!	!	!	!	!	!	!	!	!	!
.	8qqc#/	8qqa/	.	.	.	.	.	.	.	.	.
8BB/L	4B/	4g/	.	.	.	.	.	.	.	.	.
8GG/J	.	.	.	.	.	.	.	.	.	.	.
8GG/L	8b\L	8g/L	.	.	.	.	.	.	.	.	.
8GG/	8b\	16b/L	.	.	.	.	.	.	.	.	.
.	.	16dd/JJ	.	.	.	.	.	.	.	.	.
8GG/	8b\	16dd/LL	.	.	.	.	.	.	.	.	.
.	.	16b/	.	.	.	.	.	.	.	.	.
8GG/J	8b\J	16a/	.	.	.	.	.	.	.	.	.
.	.	16g/JJ	.	.	.	.	.	.	.	.	.
=56	=56	=56	=56	=56	=56	=56	=56	=56	=56	=56	=56
!	!LO:SIC:s=16ccn:v	!	!	!	!	!	!	!	!	!	!
8GG/L	16cc#\LL	16ee\LL	.	1r	.	.	.	.	.	.	.
.	16a\	16ccn\	.	.	.	.	.	.	.	.	.
8GG/	16a\	16cc\	.	.	.	.	.	.	.	.	.
!	!LO:SIC:s=16ccn:v	!	!	!	!	!	!	!	!	!	!
.	16cc#\JJ	16ee\JJ	.	.	.	.	.	.	.	.	.
!	!LO:SIC:s=8qqccn:v:t=przednutka	!	!	!	!	!	!	!	!	!	!
.	8qqcc#/	8qqee/	.	.	.	.	.	.	.	.	.
8GG/	4b\	4dd\	.	.	.	.	.	.	.	.	.
8GG/J	.	.	.	.	.	.	.	.	.	.	.
*	*tremolo	*	*	*	*	*	*	*	*	*	*
8D\L	8a/L	16cc\LL	.	.	.	.	.	.	.	.	.
.	.	16ff#\	.	.	.	.	.	.	.	.	.
8D\	8a/	16aa\	.	.	.	.	.	.	.	.	.
.	.	16gg\JJ	.	.	.	.	.	.	.	.	.
8F#\	8a/	16ff#\LL	.	.	.	.	.	.	.	.	.
.	.	16ee\	.	.	.	.	.	.	.	.	.
8D\J	8a/J	16dd\	.	.	.	.	.	.	.	.	.
.	.	16cc\JJ	.	.	.	.	.	.	.	.	.
*	*Xtremolo	*	*	*	*	*	*	*	*	*	*
!LO:LB:g=original	!	!	!	!	!	!	!	!	!	!	!
=57	=57	=57	=57	=57	=57	=57	=57	=57	=57	=57	=57
!LO:TX:a:t=P:problem=mixed beam	!	!	!	!LO:TX:a:i:t=Solo	!	!	!	!	!	!	!
8G\L	16g/LL	16b\LL	.	2r	.	.	.	.	.	.	.
.	16b/	16dd\	.	.	.	.	.	.	.	.	.
!	!LO:SIC:s=16ccn:v	!	!	!	!	!	!	!	!	!	!
8C#\	16cc#/	16ee\	.	.	.	.	.	.	.	.	.
!	!	!LO:SIC:s=16ccn:v	!	!	!	!	!	!	!	!	!
.	16a/JJ	16cc#\JJ	.	.	.	.	.	.	.	.	.
8D\	8g/L	8b/L	.	.	.	.	.	.	.	.	.
8DD/J	8f#/J	8a/J	.	.	.	.	.	.	.	.	.
4G\	4g/	4g/	.	4G\	Ju-	.	.	.	.	.	.
8.B\L	8.b\L	8.b\L	.	8.B\L	-di-	.	.	.	.	.	.
!LO:SIC:s=16cn:v	!LO:SIC:s=16ccn:v	!	!	!LO:SIC:s=16cn:v	!	!	!	!	!	!	!
16c#\Jk	16cc#\Jk	16ccn\Jk	.	16c#\Jk	.	.	.	.	.	.	.
=58	=58	=58	=58	=58	=58	=58	=58	=58	=58	=58	=58
4d\	4dd\	4dd\	.	4d\	-ca-	00r	.	00r	.	00r	00r
4D/	4d/	4d/	.	4D\	-bit	.	.	.	.	.	.
4E\	4e/	4e/	.	4E\	in	.	.	.	.	.	.
8.G\L	8.g/L	8.g/L	.	8.G\	na-	.	.	.	.	.	.
16A\Jk	16a/Jk	16a/Jk	.	16A\	-ti-	.	.	.	.	.	.
=59	=59	=59	=59	=59	=59	=59	=59	=59	=59	=59	=59
4B\	4b\	4b\	.	8.B\	-o-	.	.	.	.	.	.
.	.	.	.	16BB/	-ni-	.	.	.	.	.	.
4BB/	4B/	4B/	.	4BB/	-bus	.	.	.	.	.	.
!	!	!LO:LB:g=original	!	!	!	!	!	!	!	!	!
!	!	!	!	!LO:SIC:s=im-:v	!	!	!	!	!	!	!
!LO:SIC:s=4Cn:v	!LO:SIC:s=4cn:v	!LO:SIC:s=4cn:v	!	!LO:SIC:s=4Cn:v	!	!	!	!	!	!	!
4C#/	4c#/	4c#/	.	4C#/	in-	.	.	.	.	.	.
8E\L	8e/L	8.e/L	.	8.E\L	.	.	.	.	.	.	.
8F#\J	8f#/J	.	.	.	.	.	.	.	.	.	.
.	.	16f#/Jk	.	16F#\Jk	.	.	.	.	.	.	.
=60	=60	=60	=60	=60	=60	=60	=60	=60	=60	=60	=60
*tremolo	*	*	*	*	*	*	*	*	*	*	*
!	!	!	!	!LO:SIC:s=4G:v	!	!	!	!	!	!	!
8G\L	4g/	4g/	.	4G#X\	-ple-	.	.	.	.	.	.
8G\	.	.	.	.	.	.	.	.	.	.	.
8G\	8g/L	8b/L	.	8B\	-bit	.	.	.	.	.	.
8G\J	8b/J	8dd/J	.	8d\	ru-	.	.	.	.	.	.
!	!	!	!	!LO:LB:g=original	!	!	!	!	!	!	!
.	8qqb/	8qqdd/	.	.	.	.	.	.	.	.	.
!	!	!LO:TX:a:t=P:problem=w źródle 2ccn bez caudy	!	!	!	!	!	!	!	!	!
!	!	!	!	!LO:SIC:s=2cn:v	!	!	!	!	!	!	!
8D\L	8a/L	2ccn\	.	2c#\	-i-	.	.	.	.	.	.
8D\	8a/	.	.	.	.	.	.	.	.	.	.
8D\	8a/	.	.	.	.	.	.	.	.	.	.
8D\J	8a/J	.	.	.	.	.	.	.	.	.	.
*Xtremolo	*	*	*	*	*	*	*	*	*	*	*
=61	=61	=61	=61	=61	=61	=61	=61	=61	=61	=61	=61
8GG/L	16g\LL	16b\LL	.	4B\	-nas	.	.	.	.	.	.
.	16ee\	16gg\	.	.	.	.	.	.	.	.	.
8GG/	16dd\	16ff#\	.	.	.	.	.	.	.	.	.
!	!LO:SIC:s=16ccn:v	!	!	!	!	!	!	!	!	!	!
.	16cc#\JJ	16ee\JJ	.	.	.	.	.	.	.	.	.
8BB/	8b\L	8dd\L	.	4r	.	.	.	.	.	.	.
8D/J	8a\J	8ccn\J	.	.	.	.	.	.	.	.	.
*tremolo	*tremolo	*tremolo	*	*	*	*	*	*	*	*	*
8G\L	8g/L	8b\L	.	4B\	Ju-	.	.	.	.	.	.
8G\	8g/	8b\	.	.	.	.	.	.	.	.	.
8G\	8g/	8b\	.	8G\L	-di-	.	.	.	.	.	.
8G\J	8g/J	8b\J	.	8E\J	.	.	.	.	.	.	.
*	*Xtremolo	*	*	*	*	*	*	*	*	*	*
!	!LO:LB:g=original	!	!	!	!	!	!	!	!	!	!
=62	=62	=62	=62	=62	=62	=62	=62	=62	=62	=62	=62
!	!	!	!	!LO:TX:a:t=P:problem=mixed beam	!	!	!	!	!	!	!
8D/L	8f#/L	8a/L	.	8A\L	-Ca-	00r	.	00r	.	00r	00r
8D/	8f#/	8a/	.	8C#/J	.	.	.	.	.	.	.
8D/	8f#/	8a/	.	4D\	-bit	.	.	.	.	.	.
8D/J	8f#/J	8a/J	.	.	.	.	.	.	.	.	.
*Xtremolo	*	*Xtremolo	*	*	*	*	*	*	*	*	*
8AA/L	8A/	8A/	.	8AA/	in	.	.	.	.	.	.
8AA/	4e/	4g/	.	4G\	na-	.	.	.	.	.	.
8C#/	.	.	.	.	.	.	.	.	.	.	.
!LO:SIC:s=8D:v	!	!	!	!	!	!	!	!	!	!	!
8E/J	8d/	8f#/	.	8F#\	-ti-	.	.	.	.	.	.
=63	=63	=63	=63	=63	=63	=63	=63	=63	=63	=63	=63
8A\L	8d/L	8f#/L	.	8F#\	-o-	.	.	.	.	.	.
8E\J	8c#/J	8e/J	.	8E\	-ni-	.	.	.	.	.	.
8C#/L	4c#/	4e/	.	4E\	-buſ	.	.	.	.	.	.
8AA/J	.	.	.	.	.	.	.	.	.	.	.
*tremolo	*	*	*	*	*	*	*	*	*	*	*
!	!	!	!	!LO:SIC:s=Im-:v	!	!	!	!	!	!	!
8AA/L	8A/	8A/	.	2AA/	In-	.	.	.	.	.	.
8AA/	4f#/	4a/	.	.	.	.	.	.	.	.	.
8AA/	.	.	.	.	.	.	.	.	.	.	.
!	!LO:SIC:s=8d:v	!	!	!	!	!	!	!	!	!	!
8AA/J	8e/	8f#/	.	.	.	.	.	.	.	.	.
=64	=64	=64	=64	=64	=64	=64	=64	=64	=64	=64	=64
8AA/L	8e/L	8g/L	.	1A	-ple-	.	.	.	.	.	.
8AA/	8c#/J	8e/J	.	.	.	.	.	.	.	.	.
8AA/	4A/	4A/	.	.	.	.	.	.	.	.	.
8AA/J	.	.	.	.	.	.	.	.	.	.	.
8AA/L	8A/	8A/	.	.	.	.	.	.	.	.	.
8AA/	4e/	4g/	.	.	.	.	.	.	.	.	.
8AA/	.	.	.	.	.	.	.	.	.	.	.
8AA/J	8c#/	8e/	.	.	.	.	.	.	.	.	.
*Xtremolo	*	*	*	*	*	*	*	*	*	*	*
=65	=65	=65	=65	=65	=65	=65	=65	=65	=65	=65	=65
8AA/L	8f#/L	8f#/L	.	2A\	-bit	.	.	.	.	.	.
8AA/	8d/J	8d/J	.	.	.	.	.	.	.	.	.
8AA/	4A/	4A/	.	.	.	.	.	.	.	.	.
8AA/J	.	.	.	.	.	.	.	.	.	.	.
!	!	!	!	!LO:SIC:s=im-:v	!	!	!	!	!	!	!
8G\L	4g/	4b\	.	4B\	in-	.	.	.	.	.	.
8E\	.	.	.	.	.	.	.	.	.	.	.
8A\	4e/	4cc#X\	.	4c#\	.	.	.	.	.	.	.
8G\J	.	.	.	.	.	.	.	.	.	.	.
=66	=66	=66	=66	=66	=66	=66	=66	=66	=66	=66	=66
4F#\	4f#/	4dd\	.	8d\L	-ple-	1r	.	1r	.	1r	1r
.	.	.	.	8A\J	.	.	.	.	.	.	.
8r	8r	8r	.	8B\	-bit	.	.	.	.	.	.
8G\	8g/	8g/	.	8G\	ru-	.	.	.	.	.	.
!	!	!	!	!LO:SIC:s=-i-:v	!	!	!	!	!	!	!
4A\	4a/	4a/	.	4A\	-gi-	.	.	.	.	.	.
4AA/	4A/	4A/	.	4AA/	-nas	.	.	.	.	.	.
!LO:LB:g=original	!	!	!	!	!	!LO:LB:g=original	!	!	!	!	!
=67	=67	=67	=67	=67	=67	=67	=67	=67	=67	=67	=67
!	!LO:TX:a:t=P:problem=mixed beam	!LO:TX:a:t=P:problem=mixed beam	!	!	!	!	!	!	!	!	!
8D\L	16d/LL	16d/LL	.	8D\	Con-	8d\	Con-	8ff#\	Con-	4ff#\	4aa\
.	16dd\	16dd\	.	.	.	.	.	.	.	.	.
!	!	!	!	!LO:SIC:s=-quas-:v	!	!LO:SIC:s=-quas-:v	!	!LO:SIC:s=-quas-:v	!	!	!
8D\	16ee\	16ee\	.	8D\	-qua-	8d\	-qua-	8ff#\	-qua-	.	.
.	16ff#\JJ	16ff#\JJ	.	.	.	.	.	.	.	.	.
8D\	16gg\LL	16gg\LL	.	8D\	-sa-	8d\	-ſa-	8ff#\	-ſa-	8r	8r
.	16aa\	16aa\	.	.	.	.	.	.	.	.	.
8D\J	16bb\	16bb\	.	8D\	-bit	8d\	-bit	8ff#\	-bit	8ff#\	8aa\
.	16ccc#\JJ	16ccc#\JJ	.	.	.	.	.	.	.	.	.
!	!	!	!	!LO:LB:g=original	!	!	!	!	!	!	!
*tremolo	*	*	*	*	*	*	*	*	*	*	*
!	!	!LO:SIC:s=8ddd:v	!	!	!	!	!	!	!	!	!
!	!	!LO:TX:a:t=d	!	!	!	!	!	!	!	!	!
8D\L	8ddd\L	8eee\L	.	8D\	Ca-	8f#\	Ca-	8aa\	Ca-	8ff#\L	8aa\L
8D\	8ff#\J	8aa\J	.	8D\	-pi-	8d\	-pi-	8ff#\	-pi-	16ff#\L	16aa\L
.	.	.	.	.	.	.	.	.	.	16ff#\JJ	16aa\JJ
8D\	4ff#\	4aa\	.	4d\	-ta	4d\	-ta	4ff#\	-ta	8ff#\L	8aa\L
8D\J	.	.	.	.	.	.	.	.	.	8ff#\J	8aa\J
!	!	!LO:LB:g=original	!	!	!	!	!	!	!	!	!
=68	=68	=68	=68	=68	=68	=68	=68	=68	=68	=68	=68
8D\L	16gg\LL	16bb\LL	.	8d\	in	8B\	in	8gg\	In	4gg\	4bb\
.	16b\	16dd\	.	.	.	.	.	.	.	.	.
8D\	16dd\	16gg\	.	8d\	ter-	8B\	ter-	8gg\	ter-	.	.
.	16gg\JJ	16bb\JJ	.	.	.	.	.	.	.	.	.
8D\	8bb\L	8ddd\L	.	8d\	-ra	8B\	-ra	8gg\	-ra	8r	8r
8D\J	8gg\J	8bb\J	.	8d\	mul-	8B\	mul-	8gg\	mul-	8gg\	8bb\
*Xtremolo	*	*	*	*	*	*	*	*	*	*	*
!LO:TX:a:t=P:problem=mixed beam	!	!	!	!	!	!	!	!	!	!	!
8D/L	8gg\L	8bb\L	.	4d\	-to-	4B\	-to-	4gg\	-to-	8gg\L	8bb\L
!	!	!	!	!	!	!	!	!	!	!LO:SIC:s=16ee:v	!
8d\	8ff#\J	8aa\J	.	.	.	.	.	.	.	16gg\L	16aa\L
!	!	!	!	!	!	!	!	!	!	!LO:SIC:s=16ee:v	!
.	.	.	.	.	.	.	.	.	.	16gg\JJ	16aa\JJ
!	!	!	!	!	!	!	!	!	!	!LO:SIC:s=8ee:v	!
8A\	4ff#\	4aa\	.	4D/	-rum	4A\	-rum	4ff#\	-rum	8gg\L	8aa\L
!	!	!	!	!	!	!	!	!	!	!LO:SIC:s=8ee:v	!
8d\J	.	.	.	.	.	.	.	.	.	8gg\J	8aa\J
!	!	!	!	!	!	!	!	!LO:LB:g=original	!	!	!
=69	=69	=69	=69	=69	=69	=69	=69	=69	=69	=69	=69
*tremolo	*	*	*	*	*	*	*	*	*	*	*
8A\L	8a/L	8a/L	.	4A\	De	4c#\	De	4ee\	De	2a/	2ee\
8A\	16b/L	16b/L	.	.	.	.	.	.	.	.	.
.	16cc#/JJ	16cc#/JJ	.	.	.	.	.	.	.	.	.
!	!	!	!	!	!	!LO:SIC:s=tor-:v	!	!	!	!	!
8A\	16dd\LL	16dd\LL	.	4A\	to-	4c#\	to-	4ee\	tor-	.	.
.	16cc#\	16ee\	.	.	.	.	.	.	.	.	.
8A\J	16dd\	16ff#\	.	.	.	.	.	.	.	.	.
.	16ee\JJ	16gg\JJ	.	.	.	.	.	.	.	.	.
8AA/L	8ff#\L	8aa\L	.	4A\	-ren-	4c#\	-ren-	4ee\	-ren-	2ee\	2gg\
8AA/	8ee\J	8gg\J	.	.	.	.	.	.	.	.	.
8AA/	4ee\	4gg\	.	8A\	-te	8c#\	-te	8ee\	-te	.	.
8AA/J	.	.	.	8A\	in	8c#\	in	8ee\	in	.	.
*Xtremolo	*	*	*	*	*	*	*	*	*	*	*
!	!LO:LB:g=original	!	!	!	!	!	!	!	!	!	!LO:LB:g=original
=70	=70	=70	=70	=70	=70	=70	=70	=70	=70	=70	=70
8C#/L	16ee\LL	16gg\LL	.	4C#/	vi-	4c#\	vi-	4ee\	vi-	4ee\	4gg\
.	16dd\	16ff#\	.	.	.	.	.	.	.	.	.
8C#/	16cc#\	16ee\	.	.	.	.	.	.	.	.	.
.	16b\JJ	16dd\JJ	.	.	.	.	.	.	.	.	.
8AA/	16a\LL	16cc#\LL	.	4AA/	-a	4c#\	-a	4ee\	-a	8r	8r
.	16g\	16b\	.	.	.	.	.	.	.	.	.
8AA/J	16f#\	16a\	.	.	.	.	.	.	.	8ee\	8gg\
.	16e\JJ	16g\JJ	.	.	.	.	.	.	.	.	.
*tremolo	*	*	*	*	*	*	*	*	*	*	*
8D\L	4e/	4g/	.	4D\	bi-	4G/	bi-	4ee\	bi-	4ee\	4gg\
8D\	.	.	.	.	.	.	.	.	.	.	.
8D\	4d/	4f#/	.	4D\	-bet	4F#/	-bet	4dd\	-bet	4dd\	4ff#\
8D\J	.	.	.	.	.	.	.	.	.	.	.
!	!	!	!	!	!	!	!	!	!	!LO:LB:g=original	!
=71	=71	=71	=71	=71	=71	=71	=71	=71	=71	=71	=71
8D\L	16d/LL	16d/LL	.	4d\	pro-	4d\	pro-	4ff#\	pro-	4dd\	4ff#\
.	16d/	16d/	.	.	.	.	.	.	.	.	.
8D\	16d/	16d/	.	.	.	.	.	.	.	.	.
.	16d/JJ	16d/JJ	.	.	.	.	.	.	.	.	.
*	*	*tremolo	*	*	*	*	*	*	*	*	*
8D\	16f#/LL	16dd\LL	.	4d\	-pte-	4d\	-pte-	4ff#\	-pte-	4r	4r
.	16f#/	16dd\	.	.	.	.	.	.	.	.	.
8D\J	16f#/	16dd\	.	.	.	.	.	.	.	.	.
.	16f#/JJ	16dd\JJ	.	.	.	.	.	.	.	.	.
8D\L	16dd\LL	16ff#\LL	.	4d\	-re-	4d\	-re-	4ff#\	-re-	4dd\	4ff#\
.	16dd\	16ff#\	.	.	.	.	.	.	.	.	.
8D\	16dd\	16ff#\	.	.	.	.	.	.	.	.	.
.	16dd\JJ	16ff#\JJ	.	.	.	.	.	.	.	.	.
8D\	16ff#\LL	16aa\LL	.	4D\	-a	4d\	-a	4ff#\	-a	4ff#\	4ff#\
.	16ff#\	16aa\	.	.	.	.	.	.	.	.	.
8D\J	16ff#\	16aa\	.	.	.	.	.	.	.	.	.
.	16ff#\JJ	16aa\JJ	.	.	.	.	.	.	.	.	.
*	*	*Xtremolo	*	*	*	*	*	*	*	*	*
=72	=72	=72	=72	=72	=72	=72	=72	=72	=72	=72	=72
!	!	!	!	!LO:TX:a:t=P:problem=znak początku repetycji	!	!	!	!	!	!	!
8AA/L	16ee\LL	16gg\LL	.	4A\	e-	4c#\	e-	4ee\	e-	4ee\	4gg\
.	16dd\	16ff#\	.	.	.	.	.	.	.	.	.
8AA/	16cc#\	16ee\	.	.	.	.	.	.	.	.	.
.	16b\JJ	16dd\JJ	.	.	.	.	.	.	.	.	.
8AA/	16a\LL	16cc#\LL	.	4A\	-xal-	4e\	-xal-	4gg\	-xal-	4a/	4ee\
.	16g\	16b\	.	.	.	.	.	.	.	.	.
8AA/J	16f#\	16a\	.	.	.	.	.	.	.	.	.
.	16e\JJ	16g\JJ	.	.	.	.	.	.	.	.	.
8D\L	16d/LL	16f#/LL	.	4D\	-ta-	4d\	-ta-	4ff#\	-ta-	4dd\	4ff#\
.	16d/	16f#/	.	.	.	.	.	.	.	.	.
8D\	16d/	16f#/	.	.	.	.	.	.	.	.	.
.	16d/JJ	16f#/JJ	.	.	.	.	.	.	.	.	.
*	*	*tremolo	*	*	*	*	*	*	*	*	*
8D\	16f#/LL	16dd\LL	.	4d\	-bit	4d\	-bit	4ff#\	-bit	4r	4r
.	16f#/	16dd\	.	.	.	.	.	.	.	.	.
8D\J	16f#/	16dd\	.	.	.	.	.	.	.	.	.
.	16f#/JJ	16dd\JJ	.	.	.	.	.	.	.	.	.
!	!	!	!	!LO:TX:a:t=P:problem=znak końca repetycji	!	!	!	!	!	!	!
=73	=73	=73	=73	=73	=73	=73	=73	=73	=73	=73	=73
*	*	*	*	*rep	*	*	*	*	*	*	*
*	*	*	*	*	*	*	*	*	*ij	*	*
!	!	!	!	!LO:TX:a:t=P:problem=powtórzenie taktu oznaczone znakami repetycji	!	!	!	!	!	!	!
8D\L	16dd\LL	16ff#\LL	.	4A\	e-	4d\	e-	4ff#\	e-	4dd\	4ff#\
.	16dd\	16ff#\	.	.	.	.	.	.	.	.	.
8D\	16dd\	16ff#\	.	.	.	.	.	.	.	.	.
.	16dd\JJ	16ff#\JJ	.	.	.	.	.	.	.	.	.
8D\	16ff#\LL	16aa\LL	.	4A\	-xal-	4d\	-xal-	4ff#\	-xal-	4ff#\	4aa\
.	16ff#\	16aa\	.	.	.	.	.	.	.	.	.
8D\J	16ff#\	16aa\	.	.	.	.	.	.	.	.	.
.	16ff#\JJ	16aa\JJ	.	.	.	.	.	.	.	.	.
*	*	*Xtremolo	*	*	*	*	*	*	*	*	*
!	!	!	!	!LO:SIC:s=4C#:v	!	!	!	!	!	!	!
8AA/L	16ee\LL	16gg\LL	.	4D\	-ta-	4c#\	-ta-	4ee\	-ta-	4ee\	4gg\
.	16dd\	16ff#\	.	.	.	.	.	.	.	.	.
8AA/	16cc#\	16ee\	.	.	.	.	.	.	.	.	.
.	16b\JJ	16dd\JJ	.	.	.	.	.	.	.	.	.
!	!	!	!	!LO:SIC:s=4c#:v	!	!	!	!	!	!LO:SIC:s=4dd:v:t=albo 4g	!LO:SIC:s=4ff:v
8AA/	16a\LL	16cc#\LL	.	4d\	-bit	4e\	-bit	4gg\	-bit	4a/	4ff#\
.	16g\	16b\	.	.	.	.	.	.	.	.	.
8AA/J	16f#\	16a\	.	.	.	.	.	.	.	.	.
.	16e\JJ	16g\JJ	.	.	.	.	.	.	.	.	.
*	*	*	*	*	*	*	*	*	*Xij	*	*
*	*	*	*	*Xrep	*	*	*	*	*	*	*
*Xtremolo	*	*	*	*	*	*	*	*	*	*	*
!	!	!LO:LB:g=original	!	!	!	!LO:LB:g=original	!	!	!	!	!
=74	=74	=74	=74	=74	=74	=74	=74	=74	=74	=74	=74
!LO:TX:a:t=P:problem=mixed beam	!	!LO:TX:a:t=P:problem=mixed beam	!	!	!	!	!	!	!	!	!
8D\L	8d/L	8f#/L	.	8D\L	Ca-	4d\	Ca-	4ff#\	Ca-	4dd\	4ff#\
8F#\	8f#/	8dd\	.	8F#\J	.	.	.	.	.	.	.
!	!	!	!	!LO:TX:a:t=P:problem=mixed beam	!	!	!	!	!	!	!
8A\	8c#/	8e/	.	8A\L	.	4c#\	.	4ee\	.	8a/L	8ee\L
8AA/J	8e/J	8cc#\J	.	8AA/J	.	.	.	.	.	8a/J	8ee\J
!LO:TX:a:t=P:problem=mixed beam	!	!	!	!	!	!	!	!	!	!	!
8D\L	8dd\L	8ff#\L	.	4D\	-put	4d\	-put	4ff#\	-put	4dd\	4ff#\
8F#\	8ff#\	8ddd\	.	.	.	.	.	.	.	.	.
8A\	8cc#\	8ee\	.	4r	.	4r	.	4r	.	8a/L	8ee\L
8AA/J	8ee\J	8ccc#\J	.	.	.	.	.	.	.	8a/J	8ee\J
!	!	!	!	!LO:LB:g=original	!	!	!	!	!	!	!
=75	=75	=75	=75	=75	=75	=75	=75	=75	=75	=75	=75
!LO:TX:a:i:t=Adagio	!LO:TX:a:i:t=adagio	!LO:TX:b:i:t=Adagio	!	!LO:TX:a:i:t=ada&colon;	!	!LO:TX:a:i:t=ada&colon;	!	!LO:TX:a:i:t=ada&colon;	!	!LO:TX:a:t=Adagio	!LO:TX:a:t=Adagio
!	!LO:TX:a:t=P:problem=w źródle tekst 'adagio' słabo widoczny	!	!	!	!	!	!	!	!	!	!
4.D\	4.ff#\	4.ddd\	.	4.d\	Glo-	4.d\	Glo-	4.ff#\	Glo-	4.dd\	4.ff#\
8D\	8ff#\	8ddd\	.	8d\	-ri-	8d\	-ri-	8ff#\	-ri-	8dd\	8ff#\
4D\	4ff#\	4ddd\	.	4D\	-a	4d\	-a	4ff#\	-a	4dd\	4ff#\
4D\	16ff#\LL	8aa\L	.	4r	.	16f#\LL	Pa-	16aa\LL	Pa-	4r	4r
.	16ee\J	.	.	.	.	16e\JJ	.	16gg\JJ	.	.	.
.	8dd\J	16gg\L	.	.	.	8d\	-tri	8ff#\	-tri	.	.
.	.	16ff#\JJ	.	.	.	.	.	.	.	.	.
=76	=76	=76	=76	=76	=76	=76	=76	=76	=76	=76	=76
4.AA/	4.ee\	4.ccc#\	.	4.A\	glo-	4.c#\	glo-	4.ee\	glo-	4.a/	4.ee\
8AA/	8ee\	8ccc#\	.	8A\	-ri-	8c#\	-ri-	8ee\	-ri-	8a/	8ee\
4AA/	4ee\	4ccc#\	.	4A\	-a	4c#\	-a	4ee\	-a	4a/	4ee\
!	!LO:LB:g=original	!	!	!	!	!	!	!	!	!	!
4AA/	16ee\LL	8gg\L	.	4r	.	16e\	fi-	16gg\	fi-	4r	4r
.	16dd\J	.	.	.	.	16d\	-li-	16ff#\	-li-	.	.
.	8cc#\J	16ff#\L	.	.	.	8c#\	-o	8ee\	-o	.	.
.	.	16ee\JJ	.	.	.	.	.	.	.	.	.
!	!	!	!	!	!	!	!	!LO:LB:g=original	!	!	!
=77	=77	=77	=77	=77	=77	=77	=77	=77	=77	=77	=77
8D/L	16dd\LL	16ff#\LL	.	8D\	et	8d\	et	8ff#\	et	8dd\	8ff#\
.	(>16dd\	(>16ff#\	.	.	.	.	.	.	.	.	.
8D/	16cc#\)	16ee\)	.	8D\	spi-	16c#\LL	spi-	16ee\LL	spi-	8r	8r
.	16dd\JJ	16ff#\JJ	.	.	.	16d\JJ	.	16ff#\JJ	.	.	.
8AA/	16ee\LL	16gg\LL	.	8A\	-ri-	8e\	-ri-	8gg\	-ri-	8ee\	8gg\
.	(>16ee\	(>16gg\	.	.	.	.	.	.	.	.	.
8AA/J	16dd\	16ff#\)	.	16A\	-tu-	16d\	-tu-	16ff#\	-tu-	8r	8r
.	16ee\JJ)	16gg\JJ	.	16A\	-i	16e\	-i	16gg\	-i	.	.
.	8qqee/	8qqgg/	.	.	.	8qqe/	.	8qqgg/	.	.	.
!	!LO:TX:a:t=P:problem=w źródle 2dd bez caudy	!	!	!	!	!	!	!	!	!	!
2GG#X/	2dd\	2ff#\	.	2G#X\	ſan-	2d\	ſan-	2ff#\	ſan-	2dd\	2ff#\
!LO:LB:g=original	!	!	!	!	!	!	!	!	!	!	!
=78	=78	=78	=78	=78	=78	=78	=78	=78	=78	=78	=78
1AA;<	1cc#;>	1ee;>	.	1A	-cto	1c#	-cto	1ee;>	-cto	1a;<	1ee;>
=79||	=79||	=79||	=79||	=79||	=79||	=79||	=79||	=79||	=79||	=79||	=79
!LO:TX:a:i:t=Allo	!LO:TX:a:i:t=allo	!LO:TX:a:i:t=Allo	!	!LO:TX:a:t=allo.	!	!LO:TX:a:i:t=allo:rj	!	!LO:TX:a:i:t=allo	!	!LO:TX:a:t=allo	!LO:TX:a:t=Allo
8D\L	4ff#/ 4a/ 4d/	4ddd/ 4ff#/ 4d/	.	8D\L	ſi-	4d\	ſi-	4ff#\	ſi-	4dd\	4ff#\
8E\	.	.	.	8E\J	.	.	.	.	.	.	.
8F#\	4ff#/ 4a/ 4d/	4ddd/ 4ff#/ 4d/	.	8F#\L	-cut	4d\	-cut	4ff#\	-cut	4dd\	4ff#\
8E\J	.	.	.	8E\J	.	.	.	.	.	.	.
*tremolo	*	*	*	*	*	*	*	*	*	*	*
8D\L	16ff#\LL	16aa\LL	.	4d\	e-	16f#\LL	e-	16aa\LL	e-	8dd\L	8ff#\L
.	16ee\JJ	16gg\JJ	.	.	.	16e\JJ	.	16gg\JJ	.	.	.
8D\	4.dd\	4.ff#\	.	.	.	4.d\	-rat	4.ff#\	-rat	16dd\L	16ff#\L
.	.	.	.	.	.	.	.	.	.	16dd\JJ	16ff#\JJ
8D\	.	.	.	4D/	-rat	.	.	.	.	8dd\L	8ff#\L
8D\J	.	.	.	.	.	.	.	.	.	8dd\J	8ff#\J
*Xtremolo	*	*	*	*	*	*	*	*	*	*	*
!	!	!	!	!	!	!	!	!	!	!	!LO:LB:g=original
=80	=80	=80	=80	=80	=80	=80	=80	=80	=80	=80	=80
!LO:TX:a:t=P:problem=mixed beam	!	!	!	!LO:TX:a:t=P:problem=mixed beam	!	!	!	!	!	!	!
8G\L	16gg\LL	16bb\LL	.	8G\L	in	4B\	in	4gg\	in	4dd\	4gg\
.	16b\	16dd\	.	.	.	.	.	.	.	.	.
8GG/	16dd\	16gg\	.	8GG/J	.	.	.	.	.	.	.
.	16gg\JJ	16bb\JJ	.	.	.	.	.	.	.	.	.
8BB/	8bb\L	8ddd\L	.	8BB/L	prin-	4B\	prin-	4gg\	prin-	8r	8r
8C#/J	8gg\J	8bb\J	.	8C#/J	.	.	.	.	.	8dd\	8gg\
8D\L	8gg\L	8bb\L	.	8D\	-ci-	8B\	-ci-	8gg\	-ci-	8dd\L	8gg\L
8D\	8ff#\J	8aa\J	.	8D\	-pi-	8A\	-pi-	8ff#\	-pi-	16dd\L	16ff#\L
.	.	.	.	.	.	.	.	.	.	16dd\JJ	16ff#\JJ
!	!	!	!	!	!	!	!	!	!	!LO:LB:g=original	!
8F#\	4r	4r	.	4D\	-o	4A\	-o	4ff#\	-o	8dd\L	8ff#\L
8D\J	.	.	.	.	.	.	.	.	.	8dd\J	8ff#\J
!	!	!LO:LB:g=original	!	!	!	!LO:LB:g=original	!	!	!	!	!
=81	=81	=81	=81	=81	=81	=81	=81	=81	=81	=81	=81
*tremolo	*	*	*	*	*	*	*	*	*	*	*
8E\L	4c#/	4a/	.	4E\	et	4c#\	et	4ee\	et	2a/	2ee\
8E\	.	.	.	.	.	.	.	.	.	.	.
8E\	32e/LLL	32cc#/LLL	.	8E\	nunc	8c#\	nunc	8ee\	nunc	.	.
.	32d/JJ	32b/JJ	.	.	.	.	.	.	.	.	.
.	8.c#/J	8.a/J	.	.	.	.	.	.	.	.	.
8E\J	.	.	.	8E\	et	8c#\	et	8ee\	et	.	.
8AA/L	32cc#\LLL	32ee\LLL	.	4A\	ſem-	4e\	ſem-	4gg\	ſem-	2ee\	2gg\
.	32dd\JJ	32ff#\JJ	.	.	.	.	.	.	.	.	.
!	!LO:N:vis=8	!	!	!	!	!	!	!	!	!	!
.	8.ee\J	8.gg\J	.	.	.	.	.	.	.	.	.
8AA/	.	.	.	.	.	.	.	.	.	.	.
!	!LO:N:vis=4.	!	!	!	!	!	!	!	!	!	!
8AA/	4ee\	4gg\	.	4A\	-per	4e\	-per	4gg\	-per	.	.
8AA/J	.	.	.	.	.	.	.	.	.	.	.
!	!	!	!	!LO:LB:g=original	!	!	!	!	!	!	!
=82	=82	=82	=82	=82	=82	=82	=82	=82	=82	=82	=82
8AA/L	16ee\LL	16gg\LL	.	4A\	et	4c#\	et	4ee\	et	4ee\	4gg\
.	16cc#\	16ee\	.	.	.	.	.	.	.	.	.
8AA/	16a\	16cc#\	.	.	.	.	.	.	.	.	.
.	16f#\JJ	16a\JJ	.	.	.	.	.	.	.	.	.
8AA/	8f#/L	8a/L	.	4A\	in	4e\	in	4gg\	in	4a/	4ee\
8AA/J	8e/J	8g/J	.	.	.	.	.	.	.	.	.
*Xtremolo	*	*	*	*	*	*	*	*	*	*	*
!	!	!	!	!	!	!	!	!LO:SIC:s=ſae-:v	!	!	!
8D\L	16d/LL	16f#/LL	.	8d\	ſe-	8d\	ſe-	8ff#\	ſe-	8dd\L	8ff#\L
.	16c#/J	16e/J	.	.	.	.	.	.	.	.	.
8d\	8d/J	8d/J	.	8D/	-cu-	8d\	-cu-	8ff#\	-cu-	16dd\L	16ff#\L
.	.	.	.	.	.	.	.	.	.	16dd\JJ	16ff#\JJ
8A\	8r	8r	.	4D/	-la	4d\	-la	4ff#\	-la	8dd\L	8ff#\L
8F#\J	8A/	8A/	.	.	.	.	.	.	.	8dd\J	8ff#\J
=83	=83	=83	=83	=83	=83	=83	=83	=83	=83	=83	=83
*tremolo	*tremolo	*	*	*	*	*	*	*	*	*	*
!	!	!	!	!	!	!	!	!LO:SIC:s=ſae-:v	!	!	!
8D\L	16d/LL	16d/LL	.	4d\	ſe-	4d\	et	4ff#\	ſe-	4dd\	4ff#\
.	16d/	16d/	.	.	.	.	.	.	.	.	.
8D\	16d/	16d/	.	.	.	.	.	.	.	.	.
.	16d/	16d/JJ	.	.	.	.	.	.	.	.	.
*	*	*tremolo	*	*	*	*	*	*	*	*	*
8D\	16d/	16f#/LL	.	4d\	-cu-	4d\	in	4ff#\	-cu-	4r	4r
.	16d/	16f#/	.	.	.	.	.	.	.	.	.
8D\J	16d/	16f#/	.	.	.	.	.	.	.	.	.
.	16d/JJ	16f#/JJ	.	.	.	.	.	.	.	.	.
8D\L	16f#/LL	16a/LL	.	4d\	-lo-	4d\	ſe-	4ff#\	-lo-	4dd\	4ff#\
.	16f#/	16a/	.	.	.	.	.	.	.	.	.
8D\	16f#/	16a/	.	.	.	.	.	.	.	.	.
.	16f#/JJ	16a/JJ	.	.	.	.	.	.	.	.	.
!	!	!	!	!LO:TX:a:t=P:problem=niejednoznaczne podłożenie tekstu	!	!	!	!LO:TX:a:t=P:problem=w źródle niejednoznaczne podłożenie tekstu	!	!	!
8D\	16a/LL	16dd\LL	.	8d\	-rum	8d\	-cu-	8ff#\	-rum	4r	4r
.	16a/	16dd\	.	.	.	.	.	.	.	.	.
8D\J	16a/	16dd\	.	8d\	.	8d\	-la	8ff#\	.	.	.
.	16a/JJ	16dd\JJ	.	.	.	.	.	.	.	.	.
*Xtremolo	*	*Xtremolo	*	*	*	*	*	*	*	*	*
=84	=84	=84	=84	=84	=84	=84	=84	=84	=84	=84	=84
!	!	!	!	!	!	!	!	!LO:SIC:s=ſae-:v	!	!	!
8D\L	16dd\LL	16ff#\LL	.	4d\	ſe-	4d\	ſe-	4ff#\	ſe-	4dd\	4ff#\
.	16dd\	16ff#\	.	.	.	.	.	.	.	.	.
8D\	16dd\	16ff#\	.	.	.	.	.	.	.	.	.
.	16dd\JJ	16ff#\JJ	.	.	.	.	.	.	.	.	.
*	*	*tremolo	*	*	*	*	*	*	*	*	*
8D\	16ff#\LL	16aa\LL	.	4D/	-cu-	4d\	-cu-	4ff#\	-cu-	4r	4r
.	16ff#\	16aa\	.	.	.	.	.	.	.	.	.
8D\J	16ff#\	16aa\	.	.	.	.	.	.	.	.	.
.	16ff#\JJ	16aa\JJ	.	.	.	.	.	.	.	.	.
*	*Xtremolo	*Xtremolo	*	*	*	*	*	*	*	*	*
8D\L	8ff#\	8ddd\	.	8D\L	-lo-	4.d\	-lo-	4.ff#\	-lo-	8dd\	8ff#\
8E\	4ee\	4aa\	.	8E\J	.	.	.	.	.	4ff#\	4aa\
8F#\	.	.	.	8F#\L	-rum	.	.	.	.	.	.
8G\J	8dd\	8gg\	.	8G\J	.	8c#\	-rum	8ee\	-ru(m)	8ee\	8gg\
=85	=85	=85	=85	=85	=85	=85	=85	=85	=85	=85	=85
!LO:TX:a:t=P:problem=mixed beam	!	!	!	!	!	!	!	!	!	!	!
8A\L	4dd\	4ff#\	.	4A\	a-	4F#/	a-	4dd\	a-	4dd\	4ff#\
8G\	.	.	.	.	.	.	.	.	.	.	.
8A\	4cc#\	4ee\	.	4AA/	men	4E/	-men	4cc#\	-men	4a/	4ee\
8AA/J	.	.	.	.	.	.	.	.	.	.	.
4D\	4dd\	4dd\	.	4d\	a-	4F#/	a-	4dd\	a-	4dd\	4ff#\
4AA/	4ee\	4ccc#\	.	4A\	.	4c#\	.	4ee\	.	4a/	4ee\
=86	=86	=86	=86	=86	=86	=86	=86	=86	=86	=86	=86
4D\	4ff#/ 4a/ 4d/	4ddd\	.	4d\	-men	4d\	-men	4ff#\	-men	8dd\L	8ff#\L
.	.	.	.	.	.	.	.	.	.	8dd\J	8ff#\J
4r	4r	4r	.	4r	.	4r	.	4r	.	4r	4r
2r	2r	2r	.	2r	.	2r	.	2r	.	2r	2r
!	!	!LO:SIC:o=Confitebor:v:t=reszta tekstu (1 słowo) wytarta	!	!	!	!	!	!	!	!	!
==	==	==	==	==	==	==	==	==	==	==	==
*-	*-	*-	*-	*-	*-	*-	*-	*-	*-	*-	*-
!!!system-decoration: [(s1,s2)][(s3,s4,s5)][(s6,s7,s8)]
!!title:
!!!RDF**kern: > = above
!!!RDF**kern: < = below
!!!RDF**dynam: p = "pia", fontstyle="italic"
!!!EED: Wojciech Jakubiak-Danek
!!!EEV: 2020-10-19
!!!ENC: Andrzej Borzym
!!!END: 2020-05-23
!!!YEC: Copyright 2022 Narodowy Instytut Fryderyka Chopina (https://polishscores.org)
!!!YEM: License CC-BY-4.0 (https://creativecommons.org/licenses/by/4.0)
